android/app/src/main/assets/custom/clean-raw.cube
LUT_3D_SIZE 6
-0.053361 -0.056721 0.034529
0.290247 -0.056721 0.034529
0.478592 -0.056721 0.034529
0.597816 -0.056721 0.034529
0.798460 -0.056721 0.034529
1.000024 -0.056721 0.034529
-0.053361 0.262427 0.034529
0.290247 0.262427 0.034529
0.478592 0.208916 0.034529
0.597816 0.175155 0.034529
0.798460 0.182603 0.034529
1.000024 0.196100 0.034529
-0.053361 0.428497 0.034529
0.229948 0.428497 0.034529
0.478592 0.428497 0.034529
0.597816 0.357445 0.034529
0.798460 0.372231 0.034529
1.000024 0.398925 0.034529
-0.053361 0.537734 0.034529
0.192343 0.537734 0.034529
0.398354 0.537734 0.034529
0.597816 0.537734 0.034529
0.798460 0.559811 0.034529
1.000024 0.599825 0.034529
-0.053361 0.746994 0.034529
0.200627 0.746994 0.034529
0.415078 0.746994 0.034529
0.620950 0.746994 0.034529
0.798460 0.746994 0.034529
1.000024 0.800293 0.034529
-0.053361 1.000020 0.034529
0.215646 1.000020 0.034529
0.445352 1.000020 0.034529
0.661835 1.000020 0.034529
0.843365 1.000020 0.034529
1.000024 1.000020 0.034529
-0.053361 -0.056721 0.264150
0.290247 -0.056721 0.264150
0.478592 -0.056721 0.205547
0.597816 -0.056721 0.168263
0.798460 -0.056721 0.176532
1.000024 -0.056721 0.191424
-0.053361 0.262427 0.264150
0.290247 0.262427 0.264150
0.478592 0.262427 0.264150
0.597816 0.262427 0.264150
0.798460 0.262427 0.264150
1.000024 0.262427 0.264150
-0.053361 0.428497 0.205547
0.290247 0.428497 0.264150
0.478592 0.428497 0.264150
0.597816 0.385453 0.264150
0.798460 0.403081 0.264150
1.000024 0.425440 0.264150
-0.053361 0.537734 0.168263
0.290247 0.537735 0.264150
0.430116 0.537735 0.264150
0.597816 0.537735 0.264150
0.798460 0.571061 0.264150
1.000024 0.612118 0.264150
-0.053361 0.746994 0.176532
0.290247 0.746994 0.264150
0.450063 0.746994 0.264150
0.632591 0.746994 0.264150
0.798460 0.746994 0.264150
1.000024 0.805190 0.264150
-0.053361 1.000020 0.191424
0.290247 1.000020 0.264150
0.475183 1.000020 0.264150
0.674095 1.000020 0.264150
0.847335 1.000020 0.264150
1.000024 1.000020 0.264150
-0.053361 -0.056721 0.440224
0.229948 -0.056721 0.440224
0.478592 -0.056721 0.440224
0.597816 -0.056721 0.365981
0.798460 -0.056721 0.381504
1.000024 -0.056721 0.409530
-0.053361 0.208916 0.440224
0.290247 0.262427 0.440224
0.478592 0.262427 0.440224
0.597816 0.262427 0.395437
0.798460 0.262427 0.413883
1.000024 0.262427 0.437053
-0.053361 0.428497 0.440224
0.290247 0.428497 0.440224
0.478592 0.428497 0.440224
0.597816 0.428497 0.440224
0.798460 0.428497 0.440224
1.000024 0.428497 0.440224
-0.053361 0.537734 0.365981
0.290247 0.537735 0.395437
0.478592 0.537735 0.440224
0.597816 0.537735 0.440224
0.798460 0.580925 0.440224
1.000024 0.613557 0.440224
-0.053361 0.746994 0.381504
0.290247 0.746994 0.413883
0.478592 0.746994 0.440224
0.642724 0.746994 0.440224
0.798460 0.746994 0.440224
1.000024 0.805742 0.440224
-0.053361 1.000020 0.409530
0.290247 1.000020 0.437053
0.478592 1.000020 0.440224
0.675544 1.000020 0.440224
0.847833 1.000020 0.440224
1.000024 1.000020 0.440224
-0.053361 -0.056721 0.551563
0.192343 -0.056721 0.551563
0.398354 -0.056721 0.551563
0.597816 -0.056721 0.551563
0.798460 -0.056721 0.573722
1.000024 -0.056721 0.613607
-0.053361 0.175155 0.551563
0.290247 0.262427 0.551563
0.430116 0.262427 0.551563
0.597816 0.262427 0.551563
0.798460 0.262427 0.584949
1.000024 0.262427 0.625802
-0.053361 0.357445 0.551563
0.290247 0.385453 0.551563
0.478592 0.428497 0.551563
0.597816 0.428497 0.551563
0.798460 0.428497 0.594808
1.000024 0.428497 0.627204
-0.053361 0.537734 0.551563
0.290247 0.537735 0.551563
0.478592 0.537735 0.551563
0.597816 0.537734 0.551563
0.798460 0.537734 0.551563
1.000024 0.537734 0.551563
-0.053361 0.746994 0.573722
0.290247 0.746994 0.584949
0.478592 0.746994 0.594808
0.597816 0.746994 0.551563
0.798460 0.746994 0.551563
1.000024 0.777289 0.551563
-0.053361 1.000020 0.613607
0.290247 1.000020 0.625802
0.478592 1.000020 0.627204
0.597816 1.000020 0.551563
0.824186 1.000020 0.551563
1.000024 1.000020 0.551563
-0.053361 -0.056721 0.757774
0.200627 -0.056721 0.757774
0.415078 -0.056721 0.757774
0.620950 -0.056721 0.757774
0.798460 -0.056721 0.757774
1.000024 -0.056721 0.809167
-0.053361 0.182603 0.757774
0.290247 0.262427 0.757774
0.450063 0.262427 0.757774
0.632591 0.262427 0.757774
0.798460 0.262427 0.757774
1.000024 0.262427 0.813861
-0.053361 0.372231 0.757774
0.290247 0.403081 0.757774
0.478592 0.428497 0.757774
0.642724 0.428497 0.757774
0.798460 0.428497 0.757774
1.000024 0.428497 0.814395
-0.053361 0.559811 0.757774
0.290247 0.571061 0.757774
0.478592 0.580925 0.757774
0.597816 0.537734 0.757774
0.798460 0.537734 0.757774
1.000024 0.537734 0.786994
-0.053361 0.746994 0.757774
0.290247 0.746994 0.757774
0.478592 0.746994 0.757774
0.597816 0.746994 0.757774
0.798460 0.746994 0.757774
1.000024 0.746994 0.757774
-0.053361 1.000020 0.809167
0.290247 1.000020 0.813861
0.478592 1.000020 0.814395
0.597816 1.000020 0.786994
0.798460 1.000020 0.757774
1.000024 1.000020 0.757774
-0.053361 -0.056721 1.000021
0.215646 -0.056721 1.000021
0.445352 -0.056721 1.000021
0.661835 -0.056721 1.000021
0.843365 -0.056721 1.000021
1.000024 -0.056721 1.000021
-0.053361 0.196100 1.000021
0.290247 0.262427 1.000021
0.475183 0.262427 1.000021
0.674095 0.262427 1.000021
0.847335 0.262427 1.000021
1.000024 0.262427 1.000021
-0.053361 0.398925 1.000021
0.290247 0.425440 1.000021
0.478592 0.428497 1.000021
0.675544 0.428497 1.000021
0.847833 0.428497 1.000021
1.000024 0.428497 1.000021
-0.053361 0.599825 1.000021
0.290247 0.612118 1.000021
0.478592 0.613557 1.000021
0.597816 0.537734 1.000021
0.824186 0.537734 1.000021
1.000024 0.537734 1.000021
-0.053361 0.800293 1.000021
0.290247 0.805190 1.000021
0.478592 0.805742 1.000021
0.597816 0.777289 1.000021
0.798460 0.746994 1.000021
1.000024 0.746994 1.000021
-0.053361 1.000020 1.000021
0.290247 1.000020 1.000021
0.478592 1.000020 1.000021
0.597816 1.000020 1.000021
0.798460 1.000020 1.000021
1.000024 1.000020 1.000021
