android/app/src/main/assets/custom/clean-raw.cube
LUT_3D_SIZE 16
-0.053361 -0.056721 0.034529
0.046203 -0.056721 0.034529
0.201145 -0.056721 0.034529
0.290247 -0.056721 0.034529
0.367238 -0.056721 0.034529
0.430535 -0.056721 0.034529
0.478592 -0.056721 0.034529
0.517185 -0.056721 0.034529
0.554412 -0.056721 0.034529
0.597816 -0.056721 0.034529
0.654584 -0.056721 0.034529
0.723549 -0.056721 0.034529
0.798460 -0.056721 0.034529
0.873870 -0.056721 0.034529
0.946462 -0.056721 0.034529
1.000024 -0.056721 0.034529
-0.053361 0.041603 0.034529
0.046203 0.041603 0.034529
0.201145 0.027649 0.034529
0.290247 0.027194 0.034529
0.367238 0.027723 0.034529
0.430535 0.028110 0.034529
0.478592 0.028310 0.034529
0.517185 0.028478 0.034529
0.554412 0.028752 0.034529
0.597816 0.029096 0.034529
0.654584 0.029934 0.034529
0.723549 0.031599 0.034529
0.798460 0.034291 0.034529
0.873870 0.037827 0.034529
0.946462 0.041254 0.034529
1.000024 0.041604 0.034529
-0.053361 0.183073 0.034529
0.035021 0.183073 0.034529
0.201145 0.183073 0.034529
0.290247 0.163579 0.034529
0.367238 0.152113 0.034529
0.430535 0.141873 0.034529
0.478592 0.131623 0.034529
0.517185 0.122543 0.034529
0.554412 0.115730 0.034529
0.597816 0.111721 0.034529
0.654584 0.111031 0.034529
0.723549 0.113073 0.034529
0.798460 0.116863 0.034529
0.873870 0.121318 0.034529
0.946462 0.125507 0.034529
1.000024 0.126046 0.034529
-0.053361 0.262427 0.034529
0.034695 0.262427 0.034529
0.179483 0.262427 0.034529
0.290247 0.262427 0.034529
0.367238 0.243257 0.034529
0.430535 0.226115 0.034529
0.478592 0.208916 0.034529
0.517185 0.193612 0.034529
0.554412 0.182024 0.034529
0.597816 0.175155 0.034529
0.654584 0.173813 0.034529
0.723549 0.176886 0.034529
0.798460 0.182603 0.034529
0.873870 0.189210 0.034529
0.946462 0.195292 0.034529
1.000024 0.196100 0.034529
-0.053361 0.330113 0.034529
0.035075 0.330113 0.034529
0.166794 0.330113 0.034529
0.268555 0.330113 0.034529
0.367238 0.330113 0.034529
0.430535 0.306552 0.034529
0.478592 0.282957 0.034529
0.517185 0.261938 0.034529
0.554412 0.245991 0.034529
0.597816 0.236498 0.034529
0.654584 0.234552 0.034529
0.723549 0.238683 0.034529
0.798460 0.246373 0.034529
0.873870 0.255130 0.034529
0.946462 0.263183 0.034529
1.000024 0.264229 0.034529
-0.053361 0.385816 0.034529
0.035356 0.385816 0.034529
0.155482 0.385816 0.034529
0.249249 0.385816 0.034529
0.340411 0.385816 0.034529
0.430535 0.385816 0.034529
0.478592 0.355996 0.034529
0.517185 0.329359 0.034529
0.554412 0.309200 0.034529
0.597816 0.297120 0.034529
0.654584 0.294658 0.034529
0.723549 0.299796 0.034529
0.798460 0.309404 0.034529
0.873870 0.320377 0.034529
0.946462 0.330384 0.034529
1.000024 0.331728 0.034529
-0.053361 0.428497 0.034529
0.035500 0.428497 0.034529
0.144166 0.428497 0.034529
0.229948 0.428497 0.034529
0.313559 0.428497 0.034529
0.396691 0.428497 0.034529
0.478592 0.428497 0.034529
0.517185 0.396428 0.034529
0.554412 0.371990 0.034529
0.597816 0.357445 0.034529
0.654584 0.354427 0.034529
0.723549 0.360595 0.034529
0.798460 0.372231 0.034529
0.873870 0.385291 0.034529
0.946462 0.397344 0.034529
1.000024 0.398925 0.034529
-0.053361 0.463214 0.034529
0.035621 0.463214 0.034529
0.134174 0.463214 0.034529
0.212885 0.463214 0.034529
0.289677 0.463214 0.034529
0.366393 0.463214 0.034529
0.442529 0.463214 0.034529
0.517185 0.463214 0.034529
0.554412 0.434633 0.034529
0.597816 0.417600 0.034529
0.654584 0.414047 0.034529
0.723549 0.421308 0.034529
0.798460 0.434814 0.034529
0.873870 0.450092 0.034529
0.946462 0.464088 0.034529
1.000024 0.465937 0.034529
-0.053361 0.497241 0.034529
0.035824 0.497241 0.034529
0.126666 0.497241 0.034529
0.199971 0.497241 0.034529
0.271638 0.497241 0.034529
0.343405 0.497241 0.034529
0.414813 0.497241 0.034529
0.485478 0.497241 0.034529
0.554412 0.497241 0.034529
0.597816 0.477723 0.034529
0.654584 0.473663 0.034529
0.723549 0.481903 0.034529
0.798460 0.497343 0.034529
0.873870 0.514821 0.034529
0.946462 0.530791 0.034529
1.000024 0.532908 0.034529
-0.053361 0.537734 0.034529
0.036077 0.537734 0.034529
0.122262 0.537734 0.034529
0.192343 0.537734 0.034529
0.260935 0.537734 0.034529
0.329667 0.537734 0.034529
0.398354 0.537734 0.034529
0.466395 0.537734 0.034529
0.533170 0.537734 0.034529
0.597816 0.537734 0.034529
0.654584 0.533185 0.034529
0.723549 0.542404 0.034529
0.798460 0.559811 0.034529
0.873870 0.579484 0.034529
0.946462 0.597456 0.034529
1.000024 0.599825 0.034529
-0.053361 0.592620 0.034529
0.036700 0.592620 0.034529
0.121503 0.592620 0.034529
0.190849 0.592620 0.034529
0.258771 0.592620 0.034529
0.326840 0.592620 0.034529
0.394906 0.592620 0.034529
0.462411 0.592620 0.034529
0.528726 0.592620 0.034529
0.593017 0.592620 0.034529
0.654584 0.592620 0.034529
0.723549 0.602891 0.034529
0.798460 0.622218 0.034529
0.873870 0.644084 0.034529
0.946462 0.664032 0.034529
1.000024 0.666637 0.034529
-0.053361 0.663378 0.034529
0.037971 0.663378 0.034529
0.123742 0.663378 0.034529
0.194254 0.663378 0.034529
0.263397 0.663378 0.034529
0.332703 0.663378 0.034529
0.401930 0.663378 0.034529
0.470535 0.663378 0.034529
0.537732 0.663378 0.034529
0.602777 0.663378 0.034529
0.664915 0.663378 0.034529
0.723549 0.663378 0.034529
0.798460 0.684653 0.034529
0.873870 0.708769 0.034529
0.946462 0.730568 0.034529
1.000024 0.733530 0.034529
-0.053361 0.746994 0.034529
0.040092 0.746994 0.034529
0.127905 0.746994 0.034529
0.200627 0.746994 0.034529
0.272066 0.746994 0.034529
0.343636 0.746994 0.034529
0.415078 0.746994 0.034529
0.485642 0.746994 0.034529
0.554542 0.746994 0.034529
0.620950 0.746994 0.034529
0.684062 0.746994 0.034529
0.743167 0.746994 0.034529
0.798460 0.746994 0.034529
0.873870 0.773154 0.034529
0.946462 0.797140 0.034529
1.000024 0.800293 0.034529
-0.053361 0.837798 0.034529
0.042995 0.837798 0.034529
0.132819 0.837798 0.034529
0.207985 0.837798 0.034529
0.281965 0.837798 0.034529
0.356116 0.837798 0.034529
0.429924 0.837798 0.034529
0.502641 0.837798 0.034529
0.573426 0.837798 0.034529
0.641281 0.837798 0.034529
0.705172 0.837798 0.034529
0.764842 0.837798 0.034529
0.820752 0.837798 0.034529
0.873870 0.837798 0.034529
0.946462 0.863765 0.034529
1.000024 0.867200 0.034529
-0.053361 0.930148 0.034529
0.045906 0.930148 0.034529
0.137433 0.930148 0.034529
0.214763 0.930148 0.034529
0.291091 0.930148 0.034529
0.367553 0.930148 0.034529
0.443569 0.930148 0.034529
0.518173 0.930148 0.034529
0.590460 0.930148 0.034529
0.659468 0.930148 0.034529
0.724104 0.930148 0.034529
0.784247 0.930148 0.034529
0.840713 0.930148 0.034529
0.894609 0.930148 0.034529
0.946462 0.930148 0.034529
1.000024 0.933842 0.034529
-0.053361 1.000020 0.034529
0.046202 1.000020 0.034529
0.138030 1.000020 0.034529
0.215646 1.000020 0.034529
0.292277 1.000020 0.034529
0.369027 1.000020 0.034529
0.445352 1.000020 0.034529
0.520197 1.000020 0.034529
0.592703 1.000020 0.034529
0.661835 1.000020 0.034529
0.726498 1.000020 0.034529
0.786836 1.000020 0.034529
0.843365 1.000020 0.034529
0.897299 1.000020 0.034529
0.949348 1.000020 0.034529
1.000024 1.000020 0.034529
-0.053361 -0.056721 0.072076
0.046203 -0.056721 0.072076
0.201145 -0.056721 0.066798
0.290247 -0.056721 0.066664
0.367238 -0.056721 0.066815
0.430535 -0.056721 0.066931
0.478592 -0.056721 0.066993
0.517185 -0.056721 0.067042
0.554412 -0.056721 0.067124
0.597816 -0.056721 0.067231
0.654584 -0.056721 0.067495
0.723549 -0.056721 0.068044
0.798460 -0.056721 0.069009
0.873870 -0.056721 0.070411
0.946462 -0.056721 0.071915
1.000024 -0.056721 0.072076
-0.053361 0.041603 0.072076
0.046203 0.041603 0.072076
0.201145 0.041603 0.072076
0.290247 0.041603 0.072076
0.367238 0.041603 0.072076
0.430535 0.041603 0.072076
0.478592 0.041603 0.072076
0.517185 0.041603 0.072076
0.554412 0.041603 0.072076
0.597816 0.041603 0.072076
0.654584 0.041603 0.072076
0.723549 0.041603 0.072076
0.798460 0.041603 0.072076
0.873870 0.041603 0.072076
0.946462 0.041603 0.072076
1.000024 0.041603 0.072076
-0.053361 0.183073 0.066798
0.046203 0.183073 0.072076
0.201145 0.183073 0.072076
0.290247 0.166438 0.072076
0.367238 0.155291 0.072076
0.430535 0.144941 0.072076
0.478592 0.134483 0.072076
0.517185 0.125175 0.072076
0.554412 0.118168 0.072076
0.597816 0.114006 0.072076
0.654584 0.113164 0.072076
0.723549 0.114953 0.072076
0.798460 0.118297 0.072076
0.873870 0.122096 0.072076
0.946462 0.125587 0.072076
1.000024 0.126046 0.072076
-0.053361 0.262427 0.066664
0.046203 0.262427 0.072076
0.182648 0.262427 0.072076
0.290247 0.262427 0.072076
0.367238 0.244279 0.072076
0.430535 0.227359 0.072076
0.478592 0.210208 0.072076
0.517185 0.194904 0.072076
0.554412 0.183257 0.072076
0.597816 0.176329 0.072076
0.654584 0.174898 0.072076
0.723549 0.177885 0.072076
0.798460 0.183365 0.072076
0.873870 0.189657 0.072076
0.946462 0.195333 0.072076
1.000024 0.196100 0.072076
-0.053361 0.330113 0.066815
0.046203 0.330113 0.072076
0.170310 0.330113 0.072076
0.269708 0.330113 0.072076
0.367238 0.330113 0.072076
0.430535 0.307037 0.072076
0.478592 0.283619 0.072076
0.517185 0.262667 0.072076
0.554412 0.246715 0.072076
0.597816 0.237211 0.072076
0.654584 0.235246 0.072076
0.723549 0.239298 0.072076
0.798460 0.246849 0.072076
0.873870 0.255393 0.072076
0.946462 0.263215 0.072076
1.000024 0.264229 0.072076
-0.053361 0.385816 0.066931
0.046203 0.385816 0.072076
0.158878 0.385816 0.072076
0.250657 0.385816 0.072076
0.340937 0.385816 0.072076
0.430535 0.385816 0.072076
0.478592 0.356247 0.072076
0.517185 0.329753 0.072076
0.554412 0.309603 0.072076
0.597816 0.297589 0.072076
0.654584 0.295123 0.072076
0.723549 0.300215 0.072076
0.798460 0.309736 0.072076
0.873870 0.320562 0.072076
0.946462 0.330416 0.072076
1.000024 0.331728 0.072076
-0.053361 0.428497 0.066993
0.046203 0.428497 0.072076
0.147323 0.428497 0.072076
0.231438 0.428497 0.072076
0.314286 0.428497 0.072076
0.396983 0.428497 0.072076
0.478592 0.428497 0.072076
0.517185 0.396564 0.072076
0.554412 0.372259 0.072076
0.597816 0.357715 0.072076
0.654584 0.354761 0.072076
0.723549 0.360891 0.072076
0.798460 0.372425 0.072076
0.873870 0.385469 0.072076
0.946462 0.397375 0.072076
1.000024 0.398925 0.072076
-0.053361 0.463214 0.067042
0.046203 0.463214 0.072076
0.137071 0.463214 0.072076
0.214322 0.463214 0.072076
0.290516 0.463214 0.072076
0.366807 0.463214 0.072076
0.442675 0.463214 0.072076
0.517185 0.463214 0.072076
0.554412 0.434766 0.072076
0.597816 0.417787 0.072076
0.654584 0.414321 0.072076
0.723549 0.421480 0.072076
0.798460 0.434978 0.072076
0.873870 0.450187 0.072076
0.946462 0.464102 0.072076
1.000024 0.465937 0.072076
-0.053361 0.497241 0.067124
0.046203 0.497241 0.072076
0.129345 0.497241 0.072076
0.201358 0.497241 0.072076
0.272457 0.497241 0.072076
0.343867 0.497241 0.072076
0.415157 0.497241 0.072076
0.485614 0.497241 0.072076
0.554412 0.497241 0.072076
0.597816 0.477801 0.072076
0.654584 0.473805 0.072076
0.723549 0.482038 0.072076
0.798460 0.497459 0.072076
0.873870 0.514862 0.072076
0.946462 0.530804 0.072076
1.000024 0.532908 0.072076
-0.053361 0.537734 0.067231
0.046203 0.537734 0.072076
0.124771 0.537734 0.072076
0.193630 0.537734 0.072076
0.261729 0.537734 0.072076
0.330202 0.537734 0.072076
0.398641 0.537734 0.072076
0.466595 0.537734 0.072076
0.533222 0.537734 0.072076
0.597816 0.537734 0.072076
0.654584 0.533225 0.072076
0.723549 0.542510 0.072076
0.798460 0.559917 0.072076
0.873870 0.579532 0.072076
0.946462 0.597462 0.072076
1.000024 0.599825 0.072076
-0.053361 0.592620 0.067495
0.046203 0.592620 0.072076
0.123848 0.592620 0.072076
0.192063 0.592620 0.072076
0.259540 0.592620 0.072076
0.327353 0.592620 0.072076
0.395272 0.592620 0.072076
0.462675 0.592620 0.072076
0.528858 0.592620 0.072076
0.593048 0.592620 0.072076
0.654584 0.592620 0.072076
0.723549 0.602953 0.072076
0.798460 0.622299 0.072076
0.873870 0.644089 0.072076
0.946462 0.664037 0.072076
1.000024 0.666637 0.072076
-0.053361 0.663378 0.068044
0.046203 0.663378 0.072076
0.125812 0.663378 0.072076
0.195353 0.663378 0.072076
0.264095 0.663378 0.072076
0.333178 0.663378 0.072076
0.402307 0.663378 0.072076
0.470728 0.663378 0.072076
0.537886 0.663378 0.072076
0.602875 0.663378 0.072076
0.664956 0.663378 0.072076
0.723549 0.663378 0.072076
0.798460 0.684683 0.072076
0.873870 0.708828 0.072076
0.946462 0.730576 0.072076
1.000024 0.733530 0.072076
-0.053361 0.746994 0.069009
0.046203 0.746994 0.072076
0.129484 0.746994 0.072076
0.201473 0.746994 0.072076
0.272620 0.746994 0.072076
0.344024 0.746994 0.072076
0.415370 0.746994 0.072076
0.485823 0.746994 0.072076
0.554672 0.746994 0.072076
0.621101 0.746994 0.072076
0.684119 0.746994 0.072076
0.743161 0.746994 0.072076
0.798460 0.746994 0.072076
0.873870 0.773169 0.072076
0.946462 0.797142 0.072076
1.000024 0.800293 0.072076
-0.053361 0.837798 0.070411
0.046203 0.837798 0.072076
0.133672 0.837798 0.072076
0.208464 0.837798 0.072076
0.282264 0.837798 0.072076
0.356310 0.837798 0.072076
0.430129 0.837798 0.072076
0.502773 0.837798 0.072076
0.573486 0.837798 0.072076
0.641301 0.837798 0.072076
0.705303 0.837798 0.072076
0.764880 0.837798 0.072076
0.820764 0.837798 0.072076
0.873870 0.837798 0.072076
0.946462 0.863766 0.072076
1.000024 0.867200 0.072076
-0.053361 0.930148 0.071915
0.046203 0.930148 0.072076
0.137518 0.930148 0.072076
0.214812 0.930148 0.072076
0.291111 0.930148 0.072076
0.367549 0.930148 0.072076
0.443594 0.930148 0.072076
0.518190 0.930148 0.072076
0.590470 0.930148 0.072076
0.659474 0.930148 0.072076
0.724111 0.930148 0.072076
0.784251 0.930148 0.072076
0.840715 0.930148 0.072076
0.894610 0.930148 0.072076
0.946462 0.930148 0.072076
1.000024 0.933842 0.072076
-0.053361 1.000020 0.072076
0.046203 1.000020 0.072076
0.138030 1.000020 0.072076
0.215646 1.000020 0.072076
0.292277 1.000020 0.072076
0.369027 1.000020 0.072076
0.445352 1.000020 0.072076
0.520197 1.000020 0.072076
0.592703 1.000020 0.072076
0.661835 1.000020 0.072076
0.726498 1.000020 0.072076
0.786836 1.000020 0.072076
0.843365 1.000020 0.072076
0.897299 1.000020 0.072076
0.949348 1.000020 0.072076
1.000024 1.000020 0.072076
-0.053361 -0.056721 0.177044
0.035021 -0.056721 0.177044
0.201145 -0.056721 0.177044
0.290247 -0.056721 0.155435
0.367238 -0.056721 0.142712
0.430535 -0.056721 0.131328
0.478592 -0.056721 0.119926
0.517185 -0.056721 0.109833
0.554412 -0.056721 0.102244
0.597816 -0.056721 0.097790
0.654584 -0.056721 0.097010
0.723549 -0.056721 0.099281
0.798460 -0.056721 0.103507
0.873870 -0.056721 0.108469
0.946462 -0.056721 0.113126
1.000024 -0.056721 0.113731
-0.053361 0.027649 0.177044
0.046203 0.041603 0.177044
0.201145 0.041603 0.177044
0.290247 0.041603 0.158588
0.367238 0.041603 0.146228
0.430535 0.041603 0.134740
0.478592 0.041603 0.123108
0.517185 0.041603 0.112766
0.554412 0.041603 0.104953
0.597816 0.041603 0.100329
0.654584 0.041603 0.099387
0.723549 0.041603 0.101372
0.798460 0.041603 0.105094
0.873870 0.041603 0.109325
0.946462 0.041603 0.113221
1.000024 0.041603 0.113732
-0.053361 0.183073 0.177044
0.046203 0.183073 0.177044
0.201145 0.183073 0.177044
0.290247 0.183073 0.177044
0.367238 0.183073 0.177044
0.430535 0.183073 0.177044
0.478592 0.183073 0.177044
0.517185 0.183073 0.177044
0.554412 0.183073 0.177044
0.597816 0.183073 0.177044
0.654584 0.183073 0.177044
0.723549 0.183073 0.177044
0.798460 0.183073 0.177044
0.873870 0.183073 0.177044
0.946462 0.183073 0.177044
1.000024 0.183073 0.177044
-0.053361 0.262427 0.155435
0.046203 0.262427 0.158588
0.201145 0.262427 0.177044
0.290247 0.262427 0.177044
0.367238 0.254228 0.177044
0.430535 0.245561 0.177044
0.478592 0.236586 0.177044
0.517185 0.228913 0.177044
0.554412 0.223424 0.177044
0.597816 0.220489 0.177044
0.654584 0.220150 0.177044
0.723549 0.221936 0.177044
0.798460 0.224912 0.177044
0.873870 0.228276 0.177044
0.946462 0.231410 0.177044
1.000024 0.231881 0.177044
-0.053361 0.330113 0.142712
0.046203 0.330113 0.146228
0.201145 0.330113 0.177044
0.280958 0.330113 0.177044
0.367238 0.330113 0.177044
0.430535 0.314322 0.177044
0.478592 0.297634 0.177044
0.517185 0.282962 0.177044
0.554412 0.272298 0.177044
0.597816 0.266419 0.177044
0.654584 0.265829 0.177044
0.723549 0.269321 0.177044
0.798460 0.275218 0.177044
0.873870 0.281798 0.177044
0.946462 0.287779 0.177044
1.000024 0.288733 0.177044
-0.053361 0.385816 0.131328
0.046203 0.385816 0.134740
0.201145 0.385816 0.177044
0.271158 0.385816 0.177044
0.349224 0.385816 0.177044
0.430535 0.385816 0.177044
0.478592 0.362171 0.177044
0.517185 0.341132 0.177044
0.554412 0.325705 0.177044
0.597816 0.317081 0.177044
0.654584 0.316203 0.177044
0.723549 0.321353 0.177044
0.798460 0.329959 0.177044
0.873870 0.339455 0.177044
0.946462 0.348103 0.177044
1.000024 0.349414 0.177044
-0.053361 0.428497 0.119926
0.046203 0.428497 0.123108
0.201145 0.428497 0.177044
0.261032 0.428497 0.177044
0.330224 0.428497 0.177044
0.403711 0.428497 0.177044
0.478592 0.428497 0.177044
0.517185 0.401551 0.177044
0.554412 0.381602 0.177044
0.597816 0.370416 0.177044
0.654584 0.369296 0.177044
0.723549 0.375944 0.177044
0.798460 0.387077 0.177044
0.873870 0.399403 0.177044
0.946462 0.410522 0.177044
1.000024 0.412221 0.177044
-0.053361 0.463214 0.109833
0.046203 0.463214 0.112766
0.201145 0.463214 0.177044
0.252386 0.463214 0.177044
0.313564 0.463214 0.177044
0.379789 0.463214 0.177044
0.448310 0.463214 0.177044
0.517185 0.463214 0.177044
0.554412 0.438939 0.177044
0.597816 0.425324 0.177044
0.654584 0.423911 0.177044
0.723549 0.432051 0.177044
0.798460 0.445637 0.177044
0.873870 0.460542 0.177044
0.946462 0.474053 0.177044
1.000024 0.476097 0.177044
-0.053361 0.497241 0.102244
0.046203 0.497241 0.104953
0.201145 0.497241 0.177044
0.246238 0.497241 0.177044
0.301442 0.497241 0.177044
0.362227 0.497241 0.177044
0.425778 0.497241 0.177044
0.490259 0.497241 0.177044
0.554412 0.497241 0.177044
0.597816 0.481199 0.177044
0.654584 0.479591 0.177044
0.723549 0.489148 0.177044
0.798460 0.505073 0.177044
0.873870 0.522577 0.177044
0.946462 0.538342 0.177044
1.000024 0.540724 0.177044
-0.053361 0.537734 0.097790
0.046203 0.537734 0.100329
0.201145 0.537734 0.177044
0.242922 0.537734 0.177044
0.294764 0.537734 0.177044
0.352365 0.537734 0.177044
0.413065 0.537734 0.177044
0.475025 0.537734 0.177044
0.536975 0.537734 0.177044
0.597816 0.537734 0.177044
0.654584 0.535911 0.177044
0.723549 0.546853 0.177044
0.798460 0.565093 0.177044
0.873870 0.585076 0.177044
0.946462 0.603124 0.177044
1.000024 0.605901 0.177044
-0.053361 0.592620 0.097010
0.046203 0.592620 0.099387
0.201145 0.592620 0.177044
0.242570 0.592620 0.177044
0.294078 0.592620 0.177044
0.351398 0.592620 0.177044
0.411774 0.592620 0.177044
0.473452 0.592620 0.177044
0.535215 0.592620 0.177044
0.595921 0.592620 0.177044
0.654584 0.592620 0.177044
0.723549 0.604967 0.177044
0.798460 0.625476 0.177044
0.873870 0.647911 0.177044
0.946462 0.668209 0.177044
1.000024 0.671316 0.177044
-0.053361 0.663378 0.099281
0.046203 0.663378 0.101372
0.201145 0.663378 0.177044
0.244560 0.663378 0.177044
0.298072 0.663378 0.177044
0.357233 0.663378 0.177044
0.419307 0.663378 0.177044
0.482584 0.663378 0.177044
0.545615 0.663378 0.177044
0.607422 0.663378 0.177044
0.666988 0.663378 0.177044
0.723549 0.663378 0.177044
0.798460 0.686230 0.177044
0.873870 0.711025 0.177044
0.946462 0.733491 0.177044
1.000024 0.736897 0.177044
-0.053361 0.746994 0.103507
0.046203 0.746994 0.105094
0.201145 0.746994 0.177044
0.247907 0.746994 0.177044
0.304756 0.746994 0.177044
0.367027 0.746994 0.177044
0.431956 0.746994 0.177044
0.497693 0.746994 0.177044
0.562915 0.746994 0.177044
0.626456 0.746994 0.177044
0.687238 0.746994 0.177044
0.744619 0.746994 0.177044
0.798460 0.746994 0.177044
0.873870 0.774225 0.177044
0.946462 0.798879 0.177044
1.000024 0.802737 0.177044
-0.053361 0.837798 0.108469
0.046203 0.837798 0.109325
0.201145 0.837798 0.177044
0.251688 0.837798 0.177044
0.312196 0.837798 0.177044
0.377860 0.837798 0.177044
0.445878 0.837798 0.177044
0.514249 0.837798 0.177044
0.581710 0.837798 0.177044
0.646952 0.837798 0.177044
0.708847 0.837798 0.177044
0.767032 0.837798 0.177044
0.821673 0.837798 0.177044
0.873870 0.837798 0.177044
0.946462 0.864700 0.177044
1.000024 0.868696 0.177044
-0.053361 0.930148 0.113126
0.046203 0.930148 0.113221
0.201145 0.930148 0.177044
0.255215 0.930148 0.177044
0.319028 0.930148 0.177044
0.387744 0.930148 0.177044
0.458394 0.930148 0.177044
0.529139 0.930148 0.177044
0.598489 0.930148 0.177044
0.665167 0.930148 0.177044
0.727996 0.930148 0.177044
0.786812 0.930148 0.177044
0.842164 0.930148 0.177044
0.895293 0.930148 0.177044
0.946462 0.930148 0.177044
1.000024 0.934580 0.177044
-0.053361 1.000020 0.113731
0.046203 1.000020 0.113732
0.201145 1.000020 0.177044
0.255744 1.000020 0.177044
0.320083 1.000020 0.177044
0.389239 1.000020 0.177044
0.460300 1.000020 0.177044
0.531367 1.000020 0.177044
0.601026 1.000020 0.177044
0.667966 1.000020 0.177044
0.730887 1.000020 0.177044
0.789717 1.000020 0.177044
0.845316 1.000020 0.177044
0.898465 1.000020 0.177044
0.949856 1.000020 0.177044
1.000024 1.000020 0.177044
-0.053361 -0.056721 0.264150
0.034695 -0.056721 0.264150
0.179483 -0.056721 0.264150
0.290247 -0.056721 0.264150
0.367238 -0.056721 0.243247
0.430535 -0.056721 0.224458
0.478592 -0.056721 0.205547
0.517185 -0.056721 0.188680
0.554412 -0.056721 0.175864
0.597816 -0.056721 0.168263
0.654584 -0.056721 0.166775
0.723549 -0.056721 0.170171
0.798460 -0.056721 0.176532
0.873870 -0.056721 0.183821
0.946462 -0.056721 0.190560
1.000024 -0.056721 0.191424
-0.053361 0.027194 0.264150
0.046203 0.041603 0.264150
0.182648 0.041603 0.264150
0.290247 0.041603 0.264150
0.367238 0.041603 0.244366
0.430535 0.041603 0.225836
0.478592 0.041603 0.207002
0.517185 0.041603 0.190115
0.554412 0.041603 0.177231
0.597816 0.041603 0.169562
0.654584 0.041603 0.167988
0.723549 0.041603 0.171277
0.798460 0.041603 0.177354
0.873870 0.041603 0.184295
0.946462 0.041603 0.190584
1.000024 0.041603 0.191424
-0.053361 0.163579 0.264150
0.046203 0.166438 0.264150
0.201145 0.183073 0.264150
0.290247 0.183073 0.264150
0.367238 0.183073 0.255219
0.430535 0.183073 0.245763
0.478592 0.183073 0.235945
0.517185 0.183073 0.227529
0.554412 0.183073 0.221525
0.597816 0.183073 0.218272
0.654584 0.183073 0.217926
0.723549 0.183073 0.219881
0.798460 0.183073 0.223149
0.873870 0.183073 0.226836
0.946462 0.183073 0.230287
1.000024 0.183073 0.230797
-0.053361 0.262427 0.264150
0.046203 0.262427 0.264150
0.201145 0.262427 0.264150
0.290247 0.262427 0.264150
0.367238 0.262427 0.264150
0.430535 0.262427 0.264150
0.478592 0.262427 0.264150
0.517185 0.262427 0.264150
0.554412 0.262427 0.264150
0.597816 0.262427 0.264150
0.654584 0.262427 0.264150
0.723549 0.262427 0.264150
0.798460 0.262427 0.264150
0.873870 0.262427 0.264150
0.946462 0.262427 0.264150
1.000024 0.262427 0.264150
-0.053361 0.330113 0.243247
0.046203 0.330113 0.244366
0.201145 0.330113 0.255219
0.290247 0.330113 0.264150
0.367238 0.330113 0.264150
0.430535 0.321545 0.264150
0.478592 0.312605 0.264150
0.517185 0.305154 0.264150
0.554412 0.300093 0.264150
0.597816 0.297590 0.264150
0.654584 0.297871 0.264150
0.723549 0.300157 0.264150
0.798460 0.303617 0.264150
0.873870 0.307438 0.264150
0.946462 0.310892 0.264150
1.000024 0.311486 0.264150
-0.053361 0.385816 0.224458
0.046203 0.385816 0.225836
0.201145 0.385816 0.245763
0.290247 0.385816 0.264150
0.357440 0.385816 0.264150
0.430535 0.385816 0.264150
0.478592 0.368754 0.264150
0.517185 0.354333 0.264150
0.554412 0.344302 0.264150
0.597816 0.339324 0.264150
0.654584 0.339835 0.264150
0.723549 0.344421 0.264150
0.798460 0.351330 0.264150
0.873870 0.358758 0.264150
0.946462 0.365534 0.264150
1.000024 0.366635 0.264150
-0.053361 0.428497 0.205547
0.046203 0.428497 0.207002
0.201145 0.428497 0.235945
0.290247 0.428497 0.264150
0.347268 0.428497 0.264150
0.411205 0.428497 0.264150
0.478592 0.428497 0.264150
0.517185 0.407464 0.264150
0.554412 0.392818 0.264150
0.597816 0.385453 0.264150
0.654584 0.386131 0.264150
0.723549 0.392948 0.264150
0.798460 0.403081 0.264150
0.873870 0.414029 0.264150
0.946462 0.423755 0.264150
1.000024 0.425440 0.264150
-0.053361 0.463214 0.188680
0.046203 0.463214 0.190115
0.201145 0.463214 0.227529
