src/assets/luts/kodak-250D.cube
# VEGAS Pro LUT
TITLE "kd250d2023"
LUT_3D_SIZE 5
0.02007449 0.02340810 0.02027119
0.35864857 0.00515803 0.00527147
0.43802509 -0.00112880 0.00687278
0.53823370 -0.00175727 0.00991700
0.74896234 -0.00343840 0.01940425
0.02973177 0.34249392 0.01807083
0.31923103 0.33990681 0.03608652
0.59756547 0.23242970 0.04128221
0.68517500 -0.00284714 0.01606755
0.77194482 -0.00366894 0.02070531
0.44628298 0.56123936 0.07135101
0.39804897 0.57032108 0.07059447
0.58289158 0.56287241 0.07218651
0.85736698 0.36235017 0.07174889
0.92952752 0.36322743 0.07239483
0.72465628 0.77574217 0.04214485
0.68920755 0.76143348 0.04690614
0.56348819 0.73058891 0.06000147
0.78102607 0.71010244 0.04757404
0.91259313 0.67913419 0.04227408
0.82153130 0.84472096 0.02575212
0.81834668 0.84299821 0.02617107
0.75645632 0.83587825 0.03124020
0.80568016 0.82108074 0.03082766
0.87784368 0.80514896 0.04985778
0.00671539 -0.00029577 0.27519396
0.31167117 -0.00122085 0.34044433
0.41805443 -0.00177451 0.33251849
0.47504905 -0.00152846 0.07189490
0.70904124 -0.00305991 0.01726834
-0.00068862 0.32369000 0.35775548
0.32288352 0.27698940 0.33460286
0.65579337 0.20542674 0.16344266
0.69784588 0.00760062 0.01778387
0.72265124 -0.00318577 0.01797868
0.28879952 0.61748618 0.13467406
0.39067158 0.59720391 0.14945522
0.63343871 0.59691566 0.06959830
0.88024396 0.44112203 0.07125780
0.91789466 0.31054825 0.07086167
0.65038311 0.80496889 0.04341140
0.65179491 0.79060459 0.04542049
0.65544719 0.78253651 0.04633293
0.83054113 0.76190907 0.03630999
0.91891038 0.65476650 0.04538777
0.81655008 0.86698836 0.02335162
0.81856769 0.86420143 0.02356059
0.76951581 0.85046196 0.02840466
0.78430790 0.83259749 0.02976962
0.86058074 0.79862636 0.03716489
0.00042167 -0.00035857 0.39796874
0.08249121 -0.00053520 0.41353399
0.30328232 -0.00134517 0.43045518
0.46028957 -0.00228582 0.42070618
0.78987211 -0.00458125 0.19788712
-0.00045845 0.21334890 0.56930929
0.11796669 0.05590036 0.53442103
0.54169869 -0.00329541 0.52355909
0.60351151 -0.00352774 0.42503470
0.70751572 -0.00304599 0.01718988
-0.00231028 0.63115984 0.69295424
0.06249493 0.58612967 0.67194343
0.54077762 0.52467752 0.61951691
0.81745523 0.39742056 0.49157059
0.90628093 0.25821093 0.06653225
0.35062188 0.76304173 0.48972985
0.37027818 0.76363087 0.46895015
0.54706579 0.75735593 0.38849968
0.78596807 0.76666075 0.27097160
0.91185367 0.67519748 0.05260975
0.68594629 0.83921844 0.35460573
0.71006012 0.84486747 0.23700081
0.71296680 0.84519672 0.12994705
0.78032744 0.85371625 0.02726970
0.88550985 0.83818120 0.02260941
0.00034455 -0.00048060 0.56557602
0.00098830 -0.00045081 0.52668679
0.05343130 -0.00059131 0.54948920
0.36425215 -0.00217927 0.63398331
0.86244386 -0.00797454 0.71091193
-0.00010390 -0.00055134 0.64787233
-0.00009656 -0.00051236 0.60432887
0.37185234 -0.00241653 0.69834316
0.41416693 -0.00255990 0.63555336
0.77630287 -0.00621535 0.58666152
-0.00221760 0.56726980 0.85126984
-0.00200889 0.51541340 0.82988513
0.27684736 0.44591424 0.81793946
0.60639101 0.30447352 0.78904569
0.90729952 -0.00483067 0.61952895
0.01211662 0.75237674 0.81449604
0.10082903 0.73697883 0.81104833
0.34032550 0.72272533 0.78192341
0.69327110 0.69787306 0.73903042
0.82937700 0.65621567 0.68177330
0.50393826 0.79693532 0.70648474
0.46145543 0.78924960 0.66584462
0.50503397 0.79421580 0.64069396
0.63033932 0.80528295 0.56095499
0.81052709 0.80309319 0.55653548
-0.00009798 -0.00051994 0.61299324
-0.00009789 -0.00051945 0.61245567
0.00772656 -0.00057081 0.64813238
0.24773273 -0.00159930 0.70139974
0.65635985 -0.00577012 0.80912459
-0.00012414 -0.00065877 0.75583166
-0.00009934 -0.00052714 0.62115109
0.20549500 -0.00149027 0.76045358
0.37433079 -0.00266362 0.77376318
0.75500095 -0.00718953 0.83800942
-0.00225110 0.56696290 0.90936285
-0.00188021 0.47676957 0.87865758
0.00671117 0.39822963 0.85146600
0.48202309 0.35468194 0.85990071
0.70315725 0.17745188 0.85430944
-0.00236889 0.73973763 0.88374424
0.25877509 0.72138339 0.85375023
0.44052729 0.70036924 0.83497751
0.64909595 0.68398094 0.80835581
0.72054076 0.67250890 0.78847462
0.31516296 0.78527075 0.83496779
0.40812409 0.78407615 0.81963915
0.46663302 0.77248120 0.81165224
0.58835691 0.76193357 0.79543382
0.76341265 0.76059836 0.78145337
