src/assets/luts/kodak-250D.cube
# VEGAS Pro LUT
TITLE "kd250d2023"
LUT_3D_SIZE 9
0.02007449 0.02340810 0.02027119
0.27361739 0.01001858 0.00834764
0.35864857 0.00515803 0.00527147
0.39341912 0.00050176 0.00584354
0.43802509 -0.00112880 0.00687278
0.45571887 -0.00130151 0.00734499
0.53823370 -0.00175727 0.00991700
0.70208472 -0.00299684 0.01691243
0.74896234 -0.00343840 0.01940425
0.00800082 0.16801848 0.00752870
0.21467657 0.17854409 0.01112388
0.39580387 0.15650107 0.01726910
0.50637120 0.09757933 0.01700253
0.51772702 -0.00163414 0.00922209
0.53294963 -0.00172490 0.00973429
0.58892041 -0.00209124 0.01180173
0.70299214 -0.00300503 0.01695858
0.75591773 -0.00350721 0.01979254
0.02973177 0.34249392 0.01807083
0.10146632 0.35365748 0.02258245
0.31923103 0.33990681 0.03608652
0.50265384 0.31429154 0.04651175
0.59756547 0.23242970 0.04128221
0.64999902 0.04990532 0.01973195
0.68517500 -0.00284714 0.01606755
0.83143544 -0.00430724 0.02430749
0.77194482 -0.00366894 0.02070531
0.25653949 0.45279321 0.06578767
0.25923529 0.45690790 0.06357720
0.22254665 0.47190052 0.05792407
0.38958257 0.46206275 0.06862060
0.61362994 0.42078760 0.06776672
0.74254644 0.32847553 0.06520983
0.78962302 0.11469261 0.03820139
0.79069173 -0.00386372 0.02180453
0.86945283 -0.00228140 0.02710758
0.44628298 0.56123936 0.07135101
0.44270644 0.56205910 0.07130813
0.39804897 0.57032108 0.07059447
0.36578849 0.57025838 0.06957129
0.58289158 0.56287241 0.07218651
0.78100818 0.51521170 0.07001776
0.85736698 0.36235017 0.07174889
0.81184804 0.05857700 0.03150785
0.92952752 0.36322743 0.07239483
0.60048097 0.68676841 0.06295731
0.56884164 0.69363952 0.06397426
0.56694901 0.69238746 0.06421135
0.48012102 0.66782510 0.07005768
0.51267785 0.64837360 0.07023020
0.74779183 0.61611015 0.06246051
0.86645949 0.62486982 0.05355977
0.89928776 0.56045234 0.05988863
0.93264747 0.55181950 0.05883561
0.72465628 0.77574217 0.04214485
0.71107125 0.77168906 0.04376002
0.68920755 0.76143348 0.04690614
0.62891328 0.74731565 0.05335740
0.56348819 0.73058891 0.06000147
0.64521569 0.72572786 0.05519575
0.78102607 0.71010244 0.04757404
0.87311113 0.70245385 0.04180232
0.91259313 0.67913419 0.04227408
0.78195173 0.82015425 0.03161376
0.78000528 0.81874079 0.03194339
0.77295440 0.81520319 0.03292797
0.73874766 0.80817789 0.03637988
0.67898697 0.79744077 0.04237487
0.69899166 0.78939629 0.04205938
0.77657008 0.78080100 0.03754668
0.85546112 0.76903385 0.03350506
0.89180946 0.75876480 0.03236002
0.82153130 0.84472096 0.02575212
0.81985152 0.84418178 0.02592642
0.81834668 0.84299821 0.02617107
0.80461085 0.84106833 0.02730549
0.75645632 0.83587825 0.03124020
0.74839741 0.82896513 0.03275411
0.80568016 0.82108074 0.03082766
0.85452992 0.81288648 0.03725931
0.87784368 0.80514896 0.04985778
0.01430652 -0.00018869 0.19257759
0.23439106 -0.00074175 0.21450956
0.37318349 -0.00130125 0.22367540
0.38891408 -0.00126337 0.16169070
0.40115440 -0.00106598 0.03766619
0.43483803 -0.00107078 0.00679173
0.49349514 -0.00149718 0.00844927
0.64833647 -0.00253857 0.01432627
0.73626065 -0.00331491 0.01870747
-0.00016030 0.14079593 0.18749134
0.13176152 0.13921820 0.16119874
0.44530341 0.13535391 0.06323882
0.56158739 0.09701263 0.01996552
0.53282720 0.02985213 0.01206959
0.53175330 -0.00171763 0.00969327
0.57405794 -0.00198885 0.01122394
0.65253669 -0.00257255 0.01451795
0.77073526 -0.00365657 0.02063555
-0.00065535 0.35788274 0.13544495
0.05736064 0.33123383 0.09264432
0.35961649 0.34897518 0.06091796
0.59171104 0.33006185 0.05572800
0.68014431 0.24133950 0.04921417
0.70969313 0.14489014 0.03659441
0.72225839 -0.00318209 0.01795791
0.72507077 -0.00320852 0.01810689
0.83882660 -0.00439059 0.02477776
0.18629210 0.48585615 0.04812887
0.15916370 0.48194966 0.04673205
0.30529073 0.49523395 0.05841687
0.48305848 0.49203441 0.06816815
0.68770266 0.43013588 0.07097879
0.77041513 0.30586565 0.06430311
0.82078558 0.21724930 0.05627923
0.83367825 0.02976953 0.02900065
0.88437241 0.12168745 0.04679672
0.43906295 0.60104793 0.07232182
0.40750650 0.59351903 0.07181472
0.43607077 0.60355008 0.07233243
0.44270185 0.59578800 0.07227837
0.60985339 0.58382064 0.07103215
0.77315634 0.53408605 0.06901776
0.85547662 0.45606390 0.07115465
0.89186525 0.35081735 0.07193495
0.91523933 0.32496566 0.07145818
0.57951170 0.70731080 0.06182493
0.57597691 0.70954466 0.06177412
0.57023901 0.69813049 0.06340744
0.51719058 0.68498838 0.06738121
0.58470416 0.67698139 0.06487682
0.74264628 0.66830528 0.05625215
0.84769857 0.63057983 0.05409528
0.90358853 0.55309761 0.06052485
0.93046355 0.49774045 0.06519496
0.72110474 0.79634064 0.03939180
0.70384842 0.79734343 0.04052987
0.68780655 0.79396343 0.04222559
0.64132077 0.77205193 0.04891742
0.63136184 0.74888492 0.05296218
0.72659302 0.74558043 0.04643812
0.83660078 0.74682581 0.03803795
0.88126284 0.70517153 0.04079397
0.91246694 0.66924423 0.04373940
0.78083873 0.82612777 0.03087758
0.77933741 0.82331026 0.03136456
0.76670563 0.82294351 0.03229729
0.73521549 0.81077677 0.03626537
0.67971939 0.79742438 0.04232237
0.69429696 0.78925419 0.04243195
0.76998305 0.78704768 0.03712970
0.84211403 0.77321726 0.03387110
0.88546902 0.75872093 0.03281287
0.81839085 0.84453648 0.02597518
0.81778175 0.84367830 0.02612180
0.81831825 0.84349471 0.02611049
0.80807835 0.84138489 0.02703872
0.76328015 0.83462000 0.03093883
0.72674322 0.82535285 0.03480505
0.76591718 0.81765819 0.03308499
0.82793891 0.80889368 0.03186179
0.86856657 0.80206108 0.03964955
0.00671539 -0.00029577 0.27519396
0.14511725 -0.00060762 0.32550839
0.31167117 -0.00122085 0.34044433
0.37711683 -0.00158444 0.35515666
0.41805443 -0.00177451 0.33251849
0.45534220 -0.00178835 0.24062119
0.47504905 -0.00152846 0.07189490
0.60611320 -0.00221438 0.01249664
0.70904124 -0.00305991 0.01726834
-0.00014051 0.09500048 0.33989221
0.03901291 0.04417367 0.33342585
0.37533408 0.00694792 0.34063268
0.49935260 -0.00234102 0.33776370
0.51681292 -0.00234411 0.29304701
0.52969110 -0.00211593 0.17647161
0.53461307 -0.00173505 0.00979154
0.59678859 -0.00214696 0.01211619
0.69996756 -0.00297785 0.01680508
-0.00068862 0.32369000 0.35775548
0.00085211 0.32358408 0.35606873
0.32288352 0.27698940 0.33460286
0.52723873 0.24687231 0.27496779
0.65579337 0.20542674 0.16344266
0.68857968 0.15183555 0.03601686
0.69784588 0.00760062 0.01778387
0.68043661 -0.00280610 0.01583595
0.72265124 -0.00318577 0.01797868
-0.00144682 0.49833721 0.31273368
0.02653648 0.48954639 0.28505465
0.32316223 0.45895606 0.27855656
0.49199495 0.47562578 0.18470904
0.69203919 0.41999686 0.08673184
0.79500771 0.33254731 0.06811908
0.84156507 0.24433038 0.06132080
0.85327315 0.12043931 0.04413144
0.84606618 -0.00447299 0.02524307
0.28879952 0.61748618 0.13467406
0.28940216 0.60881239 0.10331447
0.39067158 0.59720391 0.14945522
0.48926985 0.60565090 0.07434938
0.63343871 0.59691566 0.06959830
0.80911642 0.54578215 0.06652956
0.88024396 0.44112203 0.07125780
0.90674627 0.37492922 0.07239490
0.91789466 0.31054825 0.07086167
0.48183256 0.71782607 0.06602596
0.48999244 0.71624929 0.06577626
0.50257879 0.70818937 0.06593632
0.55079955 0.70323241 0.06393094
0.61443341 0.69723958 0.06090670
0.75869173 0.68084127 0.05340911
0.86552602 0.65456837 0.04939349
0.90960783 0.59048778 0.05527316
0.93184125 0.52006572 0.06272223
0.65038311 0.80496889 0.04341140
0.63970459 0.79457831 0.04574180
0.65179491 0.79060459 0.04542049
0.65810448 0.78493410 0.04578175
0.65544719 0.78253651 0.04633293
0.74181211 0.77238870 0.04135355
0.83054113 0.76190907 0.03630999
0.88167512 0.72555071 0.03779420
0.91891038 0.65476650 0.04538777
0.76413679 0.84857261 0.02901287
0.76124400 0.84671015 0.02945470
0.74842882 0.83973211 0.03127219
0.72674751 0.82949394 0.03422051
0.71140218 0.83031523 0.03520920
0.75240993 0.82299310 0.03330014
0.82059753 0.81035632 0.03027284
0.85224235 0.78640658 0.03133297
0.90052271 0.74332809 0.03389037
0.81655008 0.86698836 0.02335162
0.81891543 0.86593330 0.02333387
0.81856769 0.86420143 0.02356059
0.80514151 0.85967422 0.02493488
0.76951581 0.85046196 0.02840466
0.75254083 0.84428525 0.03037200
0.78430790 0.83259749 0.02976962
0.81676120 0.80991346 0.03059575
0.86058074 0.79862636 0.03716489
0.00244846 -0.00032744 0.34217933
0.01616244 -0.00035150 0.34555641
0.18388331 -0.00076354 0.36523551
0.31040692 -0.00128280 0.37829587
0.36665046 -0.00157519 0.37830216
0.43106416 -0.00197606 0.38122284
0.48329237 -0.00226801 0.35401145
0.63295984 -0.00286500 0.15849003
0.72476834 -0.00320566 0.01809083
-0.00006321 -0.00033541 0.36207214
0.02022951 -0.00037256 0.36748609
0.26821730 -0.00115372 0.41541028
0.41290903 -0.00194513 0.41653571
0.48068532 -0.00242387 0.41540694
0.51430190 -0.00260501 0.38770282
0.54217613 -0.00262732 0.32183748
0.59108114 -0.00220988 0.05027641
0.68313652 -0.00282945 0.01596764
-0.00068414 0.29579464 0.49525017
0.03481741 0.26911640 0.49601656
0.22714147 0.20643607 0.45733139
0.47546294 0.11299758 0.44881070
0.60755271 0.00780538 0.40494651
0.64643848 -0.00373330 0.36666316
0.67260551 -0.00360483 0.26436523
0.67232776 -0.00273679 0.01544484
0.68943608 -0.00288438 0.01627773
-0.00163240 0.49740753 0.50749749
-0.00158896 0.48566169 0.52324748
0.20310244 0.44694120 0.50921267
0.44836634 0.40641424 0.48684067
0.65407252 0.36522937 0.42789671
0.75449884 0.28008804 0.34587777
0.78958154 0.17933337 0.17990369
0.81539196 0.05422726 0.03114163
0.79450744 -0.00390409 0.02203237
-0.00153161 0.62591779 0.46806782
0.06170264 0.60129857 0.43110543
0.25543573 0.58562821 0.41957232
0.44698608 0.56810421 0.39875233
0.60142803 0.58437473 0.30721197
0.78565526 0.54133373 0.22389160
0.86376029 0.44472542 0.10923456
0.90375417 0.37328327 0.07238801
0.92489052 0.31070647 0.07104620
0.28721887 0.70683676 0.32632479
0.30549952 0.70540637 0.31520739
0.37873667 0.69977862 0.27489221
0.47567406 0.69383323 0.25940907
0.60478848 0.70493937 0.14561297
0.73994070 0.70274574 0.05611347
0.86226618 0.66518003 0.04809142
0.92351860 0.57208908 0.05679847
0.94681430 0.47320110 0.06675410
0.52402788 0.78578281 0.15883760
0.52272731 0.78166103 0.11016435
0.54182458 0.78118366 0.08192668
0.57365960 0.77553397 0.08382870
0.63160664 0.77354497 0.06243826
0.72822404 0.78324801 0.04077593
0.82594758 0.78657115 0.03315587
0.89761525 0.75007832 0.03315411
0.92952180 0.69365776 0.03888518
0.68863362 0.83306885 0.08219968
0.67857611 0.82820320 0.04962107
0.68860215 0.82774621 0.03723840
0.69567150 0.82755786 0.03674735
0.71126360 0.82816404 0.03552499
0.74456251 0.83589327 0.03206721
0.82475823 0.83235162 0.02710738
0.87137836 0.81078905 0.02682864
0.89755237 0.77821797 0.02933003
0.76600718 0.85799426 0.02765800
0.77669555 0.86078602 0.02660398
0.77650410 0.86103106 0.02658528
0.75906432 0.85635889 0.02832979
0.76112771 0.85614657 0.02822034
0.77008349 0.86444354 0.02656724
0.82920712 0.86183006 0.02319919
0.86177832 0.83619690 0.02428023
0.88102245 0.80260193 0.02724703
0.00042167 -0.00035857 0.39796874
0.00115767 -0.00034720 0.37804639
0.08249121 -0.00053520 0.41353399
0.24122010 -0.00108400 0.44378585
0.30328232 -0.00134517 0.43045518
0.36476660 -0.00162204 0.40489346
0.46028957 -0.00228582 0.42070618
0.64389592 -0.00377766 0.38480166
0.78987211 -0.00458125 0.19788712
-0.00006937 -0.00036812 0.41398934
0.00033969 -0.00036093 0.40185454
0.14092036 -0.00072055 0.44150072
0.31531894 -0.00148271 0.46870619
0.37897503 -0.00181111 0.45056146
0.43952769 -0.00222281 0.45248029
0.48488370 -0.00249727 0.42924649
0.58107197 -0.00293112 0.31464890
0.67533690 -0.00276237 0.01558920
-0.00045845 0.21334890 0.56930929
-0.00029133 0.14771360 0.55839288
0.11796669 0.05590036 0.53442103
0.39089212 0.00198507 0.53233188
0.54169869 -0.00329541 0.52355909
0.58715880 -0.00361403 0.49091789
0.60351151 -0.00352774 0.42503470
0.66385400 -0.00374016 0.32276091
0.70751572 -0.00304599 0.01718988
-0.00154454 0.44979316 0.66241056
-0.00140436 0.42309308 0.65684915
0.05815590 0.38877693 0.63242745
0.32319009 0.34373754 0.62077183
0.55655712 0.28495306 0.59579891
0.67320442 0.17863393 0.54341817
0.73255199 0.00037577 0.44362748
0.79199892 -0.00498301 0.28359267
0.80353940 -0.00400279 0.02311560
-0.00231028 0.63115984 0.69295424
-0.00128615 0.61101913 0.68391812
0.06249493 0.58612967 0.67194343
0.31459844 0.56309754 0.64888000
0.54077762 0.52467752 0.61951691
0.73594123 0.48759615 0.56152219
0.81745523 0.39742056 0.49157059
0.86904877 0.29227731 0.32950240
0.90628093 0.25821093 0.06653225
0.03656311 0.70859683 0.61949414
0.06896637 0.70122695 0.60784823
0.18123700 0.68872082 0.56289792
0.32293603 0.67843002 0.52454787
0.51269138 0.66839945 0.50057095
0.68233418 0.68089616 0.43788731
0.81651086 0.65996861 0.38598365
0.88750315 0.57131684 0.30910254
0.92757213 0.48387623 0.11929856
0.35062188 0.76304173 0.48972985
0.34340072 0.76169670 0.47316539
0.37027818 0.76363087 0.46895015
0.43529585 0.76028877 0.39669436
0.54706579 0.75735593 0.38849968
0.67646712 0.76555073 0.34826231
0.78596807 0.76666075 0.27097160
0.86732906 0.74037224 0.15014942
0.91185367 0.67519748 0.05260975
0.59079051 0.81443012 0.40914214
0.59378850 0.81436437 0.30577171
0.58948755 0.81256616 0.28317735
0.59547359 0.81272399 0.25310150
0.63345528 0.81015360 0.26037070
0.69437146 0.81308085 0.24202079
0.78105748 0.81458735 0.17650345
0.85803425 0.80674624 0.02847205
0.89794183 0.78523833 0.02837948
0.68594629 0.83921844 0.35460573
0.70309824 0.84379065 0.31189975
0.71006012 0.84486747 0.23700081
0.70914876 0.84296983 0.19215429
0.71296680 0.84519672 0.12994705
0.73445642 0.84638178 0.06714164
0.78032744 0.85371625 0.02726970
0.85397178 0.84967512 0.02314493
0.88550985 0.83818120 0.02260941
-0.00007718 -0.00040953 0.47432807
-0.00007255 -0.00038500 0.43924394
-0.00007291 -0.00038686 0.44197565
0.09486922 -0.00062635 0.47576573
0.21765655 -0.00103761 0.47613394
0.23854503 -0.00110532 0.46400085
0.37631133 -0.00180598 0.45538321
0.70942169 -0.00529573 0.56887859
0.85205299 -0.00684181 0.51438445
-0.00007798 -0.00041376 0.48019478
-0.00007688 -0.00040793 0.47208756
0.01153787 -0.00044522 0.49180844
0.20953090 -0.00107702 0.52253592
0.32229275 -0.00166361 0.53512287
0.34076589 -0.00171950 0.51143390
0.38750365 -0.00195662 0.48775703
0.51707691 -0.00281161 0.44600615
0.76848072 -0.00484069 0.31336126
-0.00016492 0.05869984 0.62845117
-0.00009464 -0.00050220 0.59249455
0.00108499 -0.00049725 0.58358514
0.29547873 -0.00168048 0.61298949
0.43541950 -0.00265637 0.61121112
0.46258050 -0.00276003 0.57286507
0.50974494 -0.00306084 0.54025793
0.63643241 -0.00415178 0.49816453
0.74356449 -0.00443242 0.28452125
-0.00144466 0.41202340 0.75497818
-0.00116154 0.35859209 0.73703849
-0.00099768 0.32810876 0.71510279
0.19046532 0.27156261 0.70353121
0.45845196 0.19297943 0.69482982
0.58378601 0.01454436 0.65525132
0.66758710 -0.00504713 0.62414449
0.76305395 -0.00572125 0.51902556
0.85236210 -0.00606940 0.35721812
-0.00225170 0.58813602 0.80137795
-0.00213099 0.55400354 0.78991890
-0.00206208 0.53896970 0.77517891
0.13387737 0.51244307 0.76668280
0.41487405 0.47354931 0.75411654
0.60847473 0.42293885 0.72399855
0.73323357 0.34158605 0.69056904
0.83352792 0.21706416 0.58367139
0.90780127 0.14598888 0.38935754
-0.00241696 0.70738238 0.78114229
0.00839262 0.69816554 0.77913117
0.06747389 0.68333352 0.76697320
0.19985898 0.67361629 0.75157452
0.40465391 0.65875548 0.72666717
0.63023090 0.63063186 0.69766432
0.76460427 0.60934240 0.65925938
0.83966810 0.54334366 0.59595495
0.89999759 0.47122380 0.47475103
0.15575355 0.75651538 0.70316976
0.11569749 0.74977487 0.72567499
0.16376451 0.74676794 0.69231766
0.26620555 0.74112445 0.65790701
0.39473569 0.73413134 0.62649220
0.59564263 0.72461408 0.60347593
0.73575777 0.73330528 0.56519949
0.82654458 0.72076237 0.51825702
0.87027103 0.68544132 0.45539817
0.47376326 0.78814059 0.61973560
0.43867511 0.78634572 0.57764745
0.42590153 0.78317285 0.57541007
0.44649610 0.78378952 0.54787886
0.50660235 0.78574401 0.51223117
0.61146569 0.78758103 0.49514019
0.72611827 0.78980649 0.47005284
0.81847894 0.78613788 0.42207831
0.85686338 0.78178746 0.36146960
0.60434526 0.81413662 0.56237972
0.62126648 0.81905955 0.53004622
0.61700350 0.82050264 0.46478492
0.61851686 0.82147783 0.44100124
0.62749720 0.82620573 0.40428829
0.65595573 0.83419752 0.35970062
0.70992905 0.82874340 0.34810308
0.78375006 0.82818121 0.24624667
0.85247821 0.83099484 0.19904856
0.00034455 -0.00048060 0.56557602
0.00063762 -0.00045948 0.53864115
0.00098830 -0.00045081 0.52668679
0.00160215 -0.00045797 0.53420174
0.05343130 -0.00059131 0.54948920
0.12094557 -0.00078652 0.54908496
0.36425215 -0.00217927 0.63398331
0.67526621 -0.00552116 0.70691985
0.86244386 -0.00797454 0.71091193
0.00100986 -0.00045186 0.52798051
0.00098834 -0.00045060 0.52641982
0.00091469 -0.00045208 0.52849633
0.09707658 -0.00074473 0.57718527
0.26663360 -0.00151014 0.60973519
0.29753810 -0.00167086 0.60329860
0.27403414 -0.00145419 0.56293565
0.46428797 -0.00284756 0.59554321
0.87101072 -0.00794413 0.68246168
-0.00010390 -0.00055134 0.64787233
-0.00010161 -0.00053917 0.63456088
-0.00009656 -0.00051236 0.60432887
0.15926214 -0.00108010 0.65631354
0.37185234 -0.00241653 0.69834316
0.42556044 -0.00281654 0.68756545
0.41416693 -0.00255990 0.63555336
0.56496704 -0.00393439 0.63171345
0.77630287 -0.00621535 0.58666152
-0.00117625 0.35140803 0.78963286
-0.00095229 0.30654067 0.77451175
-0.00076407 0.26547274 0.75766689
0.00118013 0.19594043 0.74094158
0.33318621 0.08058760 0.74393213
0.49795893 -0.00370736 0.74935162
0.55775881 -0.00422674 0.72273946
0.69881606 -0.00588701 0.72217733
0.87653631 -0.00778389 0.63642490
-0.00221760 0.56726980 0.85126984
-0.00212398 0.54176867 0.84319395
-0.00200889 0.51541340 0.82988513
0.00057293 0.47986698 0.81646127
0.27684736 0.44591424 0.81793946
0.49905196 0.38892218 0.80328262
0.60639101 0.30447352 0.78904569
0.76640624 0.14180845 0.76723433
0.90729952 -0.00483067 0.61952895
-0.00241701 0.68490106 0.83575702
-0.00241435 0.67530721 0.83919781
0.00926221 0.65801424 0.83048850
0.08743938 0.64622259 0.82397622
0.30303755 0.62861228 0.81252742
0.53210831 0.60452211 0.79005343
0.65828276 0.57008183 0.76942736
0.76596695 0.51225483 0.75521374
0.85912573 0.43016669 0.70032036
0.01211662 0.75237674 0.81449604
0.07483833 0.73929888 0.82151228
0.10082903 0.73697883 0.81104833
0.19054042 0.72932041 0.79733759
0.34032550 0.72272533 0.78192341
0.53523445 0.71194017 0.75769210
0.69327110 0.69787306 0.73903042
0.77912760 0.68343586 0.71555191
0.82937700 0.65621567 0.68177330
0.32060578 0.78056091 0.75891554
0.23892860 0.77294981 0.77264142
0.21298355 0.76927620 0.76518589
0.25720128 0.76784593 0.74698597
0.36044511 0.76386899 0.72477555
0.50683910 0.76085347 0.69608498
0.65494663 0.75522107 0.67392105
0.76459086 0.75945288 0.65198761
0.81501597 0.75529808 0.63016069
0.50393826 0.79693532 0.70648474
0.52579975 0.79904532 0.67798096
0.46145543 0.78924960 0.66584462
0.46722022 0.79128981 0.67173588
0.50503397 0.79421580 0.64069396
0.55205601 0.79935741 0.59601140
0.63033932 0.80528295 0.56095499
0.73591894 0.80477983 0.54190868
0.81052709 0.80309319 0.55653548
0.00003517 -0.00050603 0.59664333
0.00003539 -0.00050488 0.59529728
0.00005735 -0.00050378 0.59396273
-0.00007526 -0.00051481 0.60707682
0.00586710 -0.00054020 0.62004876
0.02277694 -0.00059029 0.62886018
0.33111653 -0.00212610 0.70111984
0.57115626 -0.00455089 0.76448178
0.78913766 -0.00750146 0.81005979
0.00012362 -0.00049845 0.58753592
0.00032242 -0.00048253 0.56798601
0.00032213 -0.00048409 0.56986409
0.01038611 -0.00053853 0.60635066
0.21703257 -0.00137615 0.67286271
0.27366737 -0.00172818 0.69120997
0.34609875 -0.00223346 0.70139921
0.45348465 -0.00304078 0.68192136
0.85019004 -0.00834031 0.81522936
-0.00000534 -0.00055111 0.64737087
-0.00003796 -0.00055001 0.64625353
-0.00010238 -0.00054328 0.63908577
0.00244312 -0.00057499 0.66637915
0.25573289 -0.00171235 0.73132741
0.37154868 -0.00254989 0.74402606
0.40140697 -0.00272618 0.72266620
0.47955009 -0.00335166 0.70220870
0.79567087 -0.00745854 0.78446126
-0.00089103 0.28643200 0.80650586
-0.00079609 0.26585472 0.79646289
-0.00057676 0.20968685 0.78317064
-0.00021216 0.06593529 0.75739115
0.15693566 0.04524165 0.77103734
0.38013864 -0.00274591 0.78467089
0.50333607 -0.00393500 0.79351765
0.60821998 -0.00512436 0.79689032
0.83333945 -0.00815256 0.82233518
-0.00221020 0.55873823 0.88334924
-0.00211221 0.53269893 0.87372541
-0.00193430 0.49210998 0.86124825
-0.00164164 0.43453208 0.84083092
0.12184697 0.41454023 0.83891517
0.39018953 0.39354101 0.84302664
0.52836043 0.32399735 0.83771527
0.63670021 0.20892122 0.83014899
0.84398478 -0.00828093 0.81976521
-0.00241583 0.67197990 0.87693089
-0.00241488 0.67070490 0.86970007
-0.00240107 0.65119523 0.86503071
0.05505316 0.63635945 0.85762292
0.24280073 0.61191857 0.84981799
0.47916248 0.59739852 0.83013469
0.59646100 0.56732482 0.81556547
0.66632289 0.52531058 0.81127292
0.79634565 0.43457502 0.80949318
-0.00236749 0.74603176 0.85567266
0.09694640 0.72950649 0.85037905
0.08400808 0.72521138 0.84919816
0.21232340 0.71882200 0.83572322
0.37393919 0.70606339 0.82291019
0.51878351 0.69499111 0.80653363
0.65184844 0.68332994 0.79096216
0.70494694 0.67081833 0.77966976
0.77317470 0.64906949 0.76992470
0.17053647 0.77642781 0.82978135
0.18221468 0.77111316 0.82531571
0.22179003 0.76224244 0.82327414
0.27088851 0.75940412 0.81545007
0.40037352 0.75259155 0.80229658
0.52651793 0.74707836 0.78820276
0.63605249 0.74251235 0.77428919
0.73442101 0.73530924 0.76397407
0.78020197 0.73134577 0.75468069
0.41094199 0.79016751 0.79021096
0.43083525 0.79151380 0.77713329
0.34942690 0.78513879 0.77821708
0.34543177 0.78208691 0.78724378
0.44455689 0.78223377 0.77697289
0.50152081 0.77841967 0.76318747
0.56954807 0.77865762 0.73261422
0.69168144 0.77612239 0.71330053
0.77642691 0.77510864 0.72018868
-0.00009798 -0.00051994 0.61299324
-0.00009789 -0.00051945 0.61245567
-0.00009789 -0.00051945 0.61245567
-0.00010101 -0.00053603 0.63108301
0.00772656 -0.00057081 0.64813238
0.02363481 -0.00061483 0.65128922
0.24773273 -0.00159930 0.70139974
0.45611137 -0.00333227 0.75831026
0.65635985 -0.00577012 0.80912459
-0.00010079 -0.00053481 0.62973571
-0.00010074 -0.00053457 0.62946463
0.00008113 -0.00054677 0.64242393
0.18525463 -0.00131955 0.72643149
0.24936906 -0.00167542 0.73167169
0.21098204 -0.00140403 0.70306402
0.41637048 -0.00295845 0.75483459
0.59710920 -0.00497465 0.79288846
0.72726339 -0.00672896 0.81912643
-0.00012414 -0.00065877 0.75583166
-0.00010276 -0.00054534 0.64132255
-0.00009934 -0.00052714 0.62115109
0.00057292 -0.00055481 0.64984697
0.20549500 -0.00149027 0.76045358
0.27140665 -0.00190287 0.77064419
0.37433079 -0.00266362 0.77376318
0.56659055 -0.00464972 0.79932779
0.75500095 -0.00718953 0.83800942
-0.00121051 0.34597743 0.85371107
-0.00024386 0.08126409 0.77408403
-0.00021285 0.06414998 0.76877451
-0.00018917 0.04551607 0.78585804
0.08303526 0.01796017 0.79423028
0.32299387 -0.00035381 0.80628592
0.44139045 -0.00340728 0.81760645
0.54833263 -0.00455962 0.82637757
0.74414569 -0.00713472 0.85563070
-0.00225110 0.56696290 0.90936285
-0.00206595 0.51805735 0.88785774
-0.00188021 0.47676957 0.87865758
-0.00163400 0.42778304 0.86765653
0.00671117 0.39822963 0.85146600
0.36651158 0.40189245 0.86523837
0.48202309 0.35468194 0.85990071
0.57521480 0.29745397 0.85824370
0.70315725 0.17745188 0.85430944
-0.00241418 0.69212753 0.90638185
-0.00241746 0.67981529 0.88464260
-0.00240106 0.64756393 0.88367921
0.03504125 0.62272936 0.87893522
0.14263555 0.59100616 0.87280172
0.46312308 0.59334886 0.84927273
0.56799597 0.57835323 0.83520162
0.63643223 0.55937642 0.82585168
0.70019537 0.52182978 0.82250971
-0.00236889 0.73973763 0.88374424
0.00865710 0.72514194 0.87144375
0.25877509 0.72138339 0.85375023
0.36616904 0.71254426 0.84431452
0.44052729 0.70036924 0.83497751
0.55269998 0.69028759 0.82183594
0.64909595 0.68398094 0.80835581
0.69038284 0.67990011 0.79704767
0.72054076 0.67250890 0.78847462
0.07705698 0.76597631 0.86351347
0.10385139 0.76738030 0.85719752
0.36352795 0.75879776 0.83263230
0.38150826 0.74924135 0.83162820
0.50686121 0.74388695 0.81736696
0.57069004 0.73653501 0.80995315
0.65393394 0.73197520 0.79951060
0.72541481 0.73012179 0.78835410
0.74866182 0.73437792 0.77944094
0.31516296 0.78527075 0.83496779
0.33808666 0.78697681 0.82646334
0.40812409 0.78407615 0.81963915
0.47150636 0.77530414 0.81287199
0.46663302 0.77248120 0.81165224
0.49558800 0.76647526 0.80532837
0.58835691 0.76193357 0.79543382
0.70432121 0.76216578 0.78462321
0.76341265 0.76059836 0.78145337
