src/assets/luts/kodak-250D.cube
# VEGAS Pro LUT
TITLE "kd250d2023"
LUT_3D_SIZE 33
0.02007449 0.02340810 0.02027119
0.09247489 0.01865557 0.01672599
0.16890860 0.01349587 0.01270373
0.22276136 0.01204812 0.01061879
0.27361739 0.01001858 0.00834764
0.30536598 0.00909362 0.00700205
0.33400285 0.00855582 0.00584849
0.34698734 0.00693596 0.00547088
0.35864857 0.00515803 0.00527147
0.36628184 0.00355249 0.00536806
0.37376878 0.00235983 0.00548075
0.38359147 0.00137001 0.00565703
0.39341912 0.00050176 0.00584354
0.40445086 -0.00023473 0.00607001
0.41586706 -0.00062092 0.00633004
0.42734292 -0.00090423 0.00660565
0.43802509 -0.00112880 0.00687278
0.44652721 -0.00124265 0.00709493
0.45336798 -0.00129004 0.00728018
0.45467407 -0.00129640 0.00731614
0.45571887 -0.00130151 0.00734499
0.45885503 -0.00131696 0.00743215
0.46564969 -0.00135092 0.00762373
0.49933323 -0.00152935 0.00863075
0.53823370 -0.00175727 0.00991700
0.59329182 -0.00212205 0.01197570
0.64863646 -0.00254099 0.01433991
0.67713678 -0.00277776 0.01567599
0.70208472 -0.00299684 0.01691243
0.71448529 -0.00310985 0.01755026
0.72597814 -0.00321706 0.01815513
0.73747039 -0.00332657 0.01877315
0.74896234 -0.00343840 0.01940425
0.02015005 0.04485715 0.01876476
0.06645019 0.04742485 0.01613942
0.14958212 0.03876024 0.01300463
0.21440794 0.03419869 0.00923588
0.26706603 0.03213269 0.00738971
0.31584096 0.03419501 0.00558247
0.34772500 0.03440815 0.00634562
0.37912321 0.03295611 0.00708775
0.39239842 0.02819945 0.00719529
0.40418994 0.01506845 0.00681899
0.41186476 0.00771240 0.00664265
0.41740340 0.00083635 0.00643990
0.42626399 0.00006798 0.00662698
0.42963910 -0.00059219 0.00668066
0.43885824 -0.00091209 0.00690619
0.44312578 -0.00110859 0.00701005
0.45227399 -0.00127031 0.00725096
0.46042216 -0.00132472 0.00747599
0.46826249 -0.00136412 0.00769841
0.47654572 -0.00140676 0.00793897
0.47960216 -0.00142275 0.00802917
0.48877195 -0.00147155 0.00830459
0.49516338 -0.00150632 0.00850082
0.51878345 -0.00164032 0.00925695
0.55511767 -0.00186378 0.01051803
0.59649742 -0.00214486 0.01210445
0.64953649 -0.00254824 0.01438086
0.67713678 -0.00277776 0.01567599
0.70238715 -0.00299957 0.01692781
0.71599758 -0.00312383 0.01762909
0.72779268 -0.00323415 0.01825184
0.73958737 -0.00334698 0.01888842
0.75107920 -0.00345923 0.01952191
0.02181610 0.07041472 0.01679556
0.07283495 0.07282104 0.01464552
0.12659864 0.07459677 0.01260336
0.19535488 0.07045235 0.00990930
0.25831977 0.06490438 0.00755565
0.30882984 0.06832206 0.00706435
0.35788926 0.06984746 0.00858911
0.39171568 0.07026650 0.00973778
0.42454010 0.06711636 0.01069769
0.43900245 0.05051294 0.01003690
0.45101050 0.03154292 0.00916941
0.45639771 0.01341950 0.00820847
0.46047720 -0.00083559 0.00750479
0.46224299 -0.00106661 0.00754215
0.46334538 -0.00123584 0.00756414
0.46533176 -0.00131962 0.00761636
0.46799427 -0.00136279 0.00769072
0.47459656 -0.00139665 0.00788184
0.48265699 -0.00143887 0.00812013
0.49210510 -0.00148958 0.00840648
0.50183135 -0.00154329 0.00870931
0.51294643 -0.00160641 0.00906551
0.52517283 -0.00167807 0.00947001
0.54783016 -0.00181722 0.01025538
0.57464200 -0.00199280 0.01124625
0.61252236 -0.00226157 0.01276307
0.65193665 -0.00256767 0.01449045
0.67833674 -0.00278805 0.01573403
0.70268965 -0.00300228 0.01694319
0.71630001 -0.00312663 0.01764488
0.72930479 -0.00324851 0.01833267
0.74109948 -0.00336164 0.01897102
0.75319600 -0.00348015 0.01964003
0.01499507 0.12108734 0.01272374
0.05267034 0.12441208 0.01095974
0.10959896 0.12590303 0.01014520
0.17172429 0.12850402 0.00964529
0.23841760 0.12487654 0.00963914
0.28963843 0.11603533 0.00996054
0.33961263 0.11833505 0.01129279
0.37763685 0.11492439 0.01255921
0.41182241 0.11382224 0.01395706
0.44239613 0.10645474 0.01470057
0.45778072 0.08956774 0.01388206
0.47852430 0.06575982 0.01274361
0.48534405 0.03652132 0.01072531
0.49132562 0.01018273 0.00911577
0.49275088 -0.00149313 0.00842634
0.49104798 -0.00148388 0.00837406
0.49238956 -0.00149118 0.00841523
0.49348038 -0.00149711 0.00844881
0.49987769 -0.00153238 0.00864783
0.50766546 -0.00157616 0.00889492
0.51739210 -0.00163217 0.00921104
0.52850759 -0.00169802 0.00958267
0.54017836 -0.00176932 0.00998489
0.55657399 -0.00187318 0.01057111
0.58076185 -0.00203457 0.01148194
0.60815156 -0.00222930 0.01258094
0.64623630 -0.00252170 0.01423110
0.67713678 -0.00277776 0.01567599
0.70208472 -0.00299684 0.01691243
0.71811467 -0.00314344 0.01773983
0.73111945 -0.00326573 0.01842999
0.74291396 -0.00337924 0.01907046
0.75470811 -0.00349519 0.01972467
0.00800082 0.16801848 0.00752870
0.03889698 0.17094047 0.00729392
0.08616476 0.17339341 0.00775123
0.15361655 0.17623559 0.00918993
0.21467657 0.17854409 0.01112388
0.26865134 0.17086266 0.01259424
0.31955677 0.16255985 0.01411248
0.35867044 0.15980819 0.01571160
0.39580387 0.15650107 0.01726910
0.42861280 0.15151903 0.01850499
0.46022981 0.14406364 0.01945208
0.48476136 0.12401859 0.01862376
0.50637120 0.09757933 0.01700253
0.51510268 0.05924743 0.01378286
0.52141291 0.01853049 0.01075334
0.51980633 0.00349446 0.00963403
0.51772702 -0.00163414 0.00922209
0.51831055 -0.00163753 0.00924134
0.51903683 -0.00164178 0.00926534
0.52543855 -0.00167966 0.00947894
0.53294963 -0.00172490 0.00973429
0.54406667 -0.00179354 0.01012167
0.55657399 -0.00187318 0.01057111
0.57172835 -0.00197315 0.01113529
0.58892041 -0.00209124 0.01180173
0.61426961 -0.00227458 0.01283638
0.64203602 -0.00248820 0.01404205
0.67323691 -0.00274448 0.01548837
0.70299214 -0.00300503 0.01695858
0.71841705 -0.00314627 0.01775570
0.73384130 -0.00329172 0.01857656
0.74442607 -0.00339397 0.01915356
0.75591773 -0.00350721 0.01979254
0.00594702 0.22084315 0.00897635
0.01809652 0.21962561 0.00723682
0.06263161 0.22242194 0.00872501
0.10254049 0.22792330 0.01046446
0.17374456 0.23043743 0.01354738
0.23862699 0.22513032 0.01611857
0.29285046 0.21721409 0.01813482
0.34055910 0.20780909 0.01976390
0.37936443 0.20556077 0.02179342
0.41826040 0.20149276 0.02371957
0.45161828 0.19589707 0.02517182
0.48387596 0.18383789 0.02574147
0.50836909 0.16289015 0.02464386
0.52594823 0.13441013 0.02221515
0.53491586 0.09521330 0.01827341
0.54180890 0.05081012 0.01424369
0.54163706 0.01394846 0.01118019
0.54454416 -0.00017818 0.01025291
0.54585671 -0.00180476 0.01018510
0.55127674 -0.00183912 0.01037898
0.55857825 -0.00188617 0.01064449
0.56734049 -0.00194380 0.01096972
0.57929397 -0.00202451 0.01142507
0.59241098 -0.00211584 0.01194050
0.60901928 -0.00223570 0.01261695
0.63722080 -0.00245020 0.01382749
0.66543466 -0.00267877 0.01511756
0.70540935 -0.00302689 0.01708191
0.73535341 -0.00330621 0.01865831
0.73747039 -0.00332657 0.01877315
0.75107920 -0.00345923 0.01952191
0.74745029 -0.00342356 0.01932046
0.75773209 -0.00352525 0.01989461
-0.00032967 0.27168936 0.01107541
0.01670171 0.27011493 0.01105426
0.03895903 0.26930898 0.01132793
0.07585489 0.27561536 0.01327413
0.11846276 0.28104863 0.01569676
0.19315088 0.27666605 0.01926246
0.26065207 0.27034056 0.02253094
0.31211546 0.26130661 0.02446294
0.36122161 0.25166559 0.02644792
0.40196615 0.24807075 0.02877851
0.44114432 0.24370322 0.03097608
0.47599909 0.23368432 0.03209228
0.50809515 0.22085977 0.03260608
0.52801359 0.19523436 0.03037406
0.54543203 0.16760385 0.02776293
0.55532593 0.12759441 0.02321118
0.56359154 0.08269881 0.01849786
0.56908166 0.03768594 0.01431310
0.57384491 0.00409790 0.01168473
0.57952464 -0.00202610 0.01143400
0.58576179 -0.00206916 0.01167716
0.59411776 -0.00212794 0.01200877
0.60287988 -0.00219083 0.01236377
0.61512691 -0.00228098 0.01287247
0.63001770 -0.00239409 0.01351084
0.65852636 -0.00262153 0.01479433
0.68973172 -0.00288697 0.01629241
0.73141468 -0.00326857 0.01844585
0.77012569 -0.00365034 0.02060045
0.77134001 -0.00366276 0.02067042
0.77103758 -0.00365966 0.02065298
0.76378018 -0.00358599 0.02023719
0.75954658 -0.00354344 0.01999702
0.00990076 0.30767566 0.01301347
0.01332230 0.30831844 0.01321646
0.04575557 0.30662408 0.01452900
0.06918798 0.31239638 0.01621303
0.10596733 0.31812564 0.01874963
0.13978577 0.32123157 0.02104216
0.21754719 0.31572047 0.02524890
0.28960228 0.30550933 0.02880678
0.34191948 0.29690573 0.03135815
0.39280254 0.29138848 0.03434882
0.43413156 0.28724065 0.03689680
0.47245103 0.27988073 0.03875990
0.50630212 0.26903591 0.03974811
0.53368074 0.25215462 0.03929414
0.55324268 0.22752449 0.03704239
0.57100058 0.19979106 0.03422540
0.58194351 0.16334452 0.02974915
0.59453422 0.12197533 0.02502638
0.60142159 0.07502444 0.01977410
0.61092091 0.02319440 0.01494006
0.61789596 -0.00215889 0.01300161
0.62575102 -0.00236130 0.01332569
0.63510001 -0.00243360 0.01373373
0.64348507 -0.00249974 0.01410707
0.65700257 -0.00260901 0.01472367
0.68281299 -0.00282662 0.01595181
0.71416456 -0.00310690 0.01753356
0.76370651 -0.00358525 0.02023299
0.80374497 -0.00400286 0.02258964
0.80494195 -0.00401575 0.02266243
0.80259424 -0.00399044 0.02251979
0.77315432 -0.00368133 0.02077522
0.76498973 -0.00359823 0.02030613
0.02973177 0.34249392 0.01807083
0.03965724 0.34263965 0.01818099
0.05078273 0.34252164 0.01834891
0.07351343 0.34826109 0.02036933
0.10146632 0.35365748 0.02258245
0.13437328 0.35764474 0.02519159
0.16553216 0.35980028 0.02758433
0.24720006 0.35035804 0.03211123
0.31923103 0.33990681 0.03608652
0.37262881 0.33483064 0.03981559
0.42497212 0.32992786 0.04302383
0.46470967 0.32300809 0.04485715
0.50265384 0.31429154 0.04651175
0.53188324 0.29980436 0.04657422
0.55898052 0.28292307 0.04609482
0.57916480 0.25880590 0.04393526
0.59756547 0.23242970 0.04128221
0.61318332 0.19725050 0.03708171
0.62739563 0.15838909 0.03235745
0.63951755 0.10706559 0.02607115
0.64999902 0.04990532 0.01973195
0.65862578 0.00654762 0.01566601
0.66688198 -0.00267870 0.01518704
0.67542303 -0.00276310 0.01559336
0.68517500 -0.00284714 0.01606755
0.70869499 -0.00305676 0.01725051
0.73682582 -0.00332036 0.01873814
0.78515726 -0.00380557 0.02147651
0.83143544 -0.00430724 0.02430749
0.83525652 -0.00435021 0.02455001
0.83406287 -0.00433674 0.02447411
0.80259424 -0.00399044 0.02251979
0.77194482 -0.00366894 0.02070531
0.06954435 0.37119696 0.02273865
0.07581466 0.37124959 0.02313780
0.09244352 0.37153509 0.02423416
0.10705651 0.37710178 0.02591525
0.12800914 0.38304648 0.02814842
0.13531211 0.38825569 0.02938574
0.16603820 0.39129329 0.03282000
0.19095093 0.38985038 0.03578526
0.27048016 0.38025552 0.04369079
0.33863738 0.37165079 0.04972170
0.39420089 0.36717194 0.04659692
0.45041484 0.36079097 0.04958803
0.49080026 0.35251856 0.05146129
0.52764332 0.34064099 0.05249709
0.55674696 0.32615873 0.05254824
0.58518809 0.31025738 0.05233662
0.60651582 0.28612345 0.05032935
0.63051546 0.26020929 0.04822583
0.64722002 0.22489582 0.04405325
0.66500199 0.18499778 0.03925308
0.67739874 0.13751960 0.03303093
0.68884957 0.07674762 0.02539108
0.69792181 0.01835560 0.01894081
0.70474553 -0.00302085 0.01704798
0.71355450 -0.00310132 0.01750183
0.72729409 -0.00322948 0.01822522
0.75161999 -0.00346454 0.01955205
0.78515708 -0.00380558 0.02147650
0.83025253 -0.00429398 0.02423269
0.84501779 -0.00446101 0.02517540
0.84597784 -0.00447201 0.02523735
0.82220799 -0.00420445 0.02372727
0.78980976 -0.00385442 0.02175205
0.12309331 0.39860278 0.03900149
0.12705518 0.39897060 0.03776025
0.13364977 0.39947909 0.03678076
0.14969169 0.40408722 0.03843533
0.16526704 0.40962732 0.04033054
0.17039065 0.41527891 0.04184056
0.17433017 0.42150813 0.04300918
0.19335562 0.42039993 0.04473180
0.21392016 0.41851395 0.04629562
0.28988412 0.41021192 0.05137553
0.35838789 0.40215608 0.05507489
0.41812769 0.39643192 0.05518077
0.47648382 0.39003956 0.05607566
0.51470184 0.37863410 0.05704950
0.55161500 0.36697480 0.05803699
0.58303595 0.35299736 0.05831348
0.61336643 0.33686644 0.05822073
0.63964969 0.31358230 0.05685262
0.66470385 0.28689963 0.05486618
0.68455130 0.25108993 0.05104676
0.70269412 0.21009487 0.04615325
0.71595192 0.15938433 0.03930542
0.72701722 0.09991839 0.03123871
0.73472810 0.03637522 0.02323134
0.74142182 -0.00038073 0.01931737
0.75233859 -0.00347167 0.01959213
0.76593721 -0.00360781 0.02036024
0.79347903 -0.00389317 0.02197083
0.82469845 -0.00423207 0.02388310
0.84196526 -0.00442621 0.02497893
0.85417163 -0.00456631 0.02576941
0.83613455 -0.00436015 0.02460591
0.81062144 -0.00407725 0.02300967
0.19067283 0.42620981 0.04743367
0.18857315 0.42547458 0.04687678
0.19234018 0.42552790 0.04657984
0.19714849 0.42853168 0.04699756
0.20896424 0.43402240 0.04787727
0.20600620 0.43839157 0.04758969
0.20847519 0.44395560 0.04781056
0.19568297 0.44699529 0.04673248
0.21417779 0.44551325 0.04814442
0.22300796 0.44511232 0.04857085
0.29942581 0.43780991 0.05371002
0.37199891 0.43274835 0.06022270
0.43416059 0.42621565 0.05966296
0.49888304 0.41569850 0.06128036
0.53864545 0.40487871 0.06209149
0.58157021 0.39382601 0.06337336
0.61453080 0.37959057 0.06366618
0.64951307 0.36273536 0.06377566
0.67674780 0.33827150 0.06254220
0.70344877 0.30844089 0.06053072
0.72378999 0.27092654 0.05688104
0.74035513 0.22712752 0.05172156
0.75275105 0.17527452 0.04469879
0.76007050 0.11171674 0.03545790
0.76669115 0.03983032 0.02574801
0.76632190 -0.00361169 0.02038223
0.77564913 -0.00370694 0.02091983
0.78172886 -0.00376985 0.02127480
0.80878520 -0.00405732 0.02289708
0.83966547 -0.00440007 0.02483144
0.85614431 -0.00458912 0.02589838
0.85981154 -0.00463178 0.02613899
0.84205818 -0.00442728 0.02498489
0.25653949 0.45279321 0.06578767
0.25347924 0.45202705 0.06436604
0.25183010 0.45101807 0.06224670
0.25502333 0.45386094 0.06287165
0.25923529 0.45690790 0.06357720
0.25599945 0.46135077 0.06291282
0.25124171 0.46616045 0.06238481
0.23797435 0.46889910 0.06041166
0.22254665 0.47190052 0.05792407
0.22862728 0.47140142 0.05632870
0.23851441 0.47128457 0.05489923
0.31569892 0.46692678 0.06241331
0.38958257 0.46206275 0.06862060
0.45875454 0.45249060 0.06308278
0.52395815 0.44220287 0.06547485
0.56923628 0.43167266 0.06670246
0.61362994 0.42078760 0.06776672
0.65161484 0.40622640 0.06817225
0.68793833 0.38772732 0.06817248
0.71623123 0.35981306 0.06698551
0.74254644 0.32847553 0.06520983
0.76058459 0.28657132 0.06144452
0.77622658 0.24038877 0.05634189
0.78436232 0.18288951 0.04838734
0.78962302 0.11469261 0.03820139
0.78775531 0.01809783 0.02432729
0.78519517 -0.00380599 0.02147875
0.78557438 -0.00380996 0.02150113
0.79069173 -0.00386372 0.02180453
0.82600236 -0.00424654 0.02396493
0.85594571 -0.00458683 0.02588538
0.86620468 -0.00470659 0.02656115
0.86945283 -0.00228140 0.02710758
0.31116369 0.48014072 0.07215072
0.30828851 0.47867438 0.07210875
0.30504107 0.47787267 0.07104909
0.30462506 0.47938579 0.07152088
0.30761352 0.48186073 0.07187713
0.30034816 0.48529017 0.07112603
0.29407409 0.49005890 0.06983859
0.27762052 0.49262920 0.06793837
0.26240119 0.49544299 0.06578162
0.24662238 0.49709836 0.06307769
0.25271609 0.49709228 0.06237751
0.27747923 0.49694669 0.06275992
0.35542905 0.49290246 0.06833802
0.42983001 0.48994699 0.07169737
0.49943903 0.47972405 0.06805968
0.56256032 0.46900359 0.06950045
0.60961980 0.45844096 0.07036006
0.65604794 0.44719517 0.07102442
0.69414735 0.43188909 0.07121586
0.72782511 0.40857536 0.07092299
0.75592470 0.37809911 0.07000484
0.77728248 0.34063482 0.06804026
0.79432690 0.29607165 0.06456479
0.80341053 0.24133354 0.05839337
0.80880117 0.17869858 0.04965836
0.79993993 0.07267306 0.03267487
0.79464442 -0.00257176 0.02220111
0.77461761 -0.00369634 0.02085997
0.77375168 -0.00368744 0.02080979
0.81760526 -0.00415364 0.02344072
0.85184407 -0.00453942 0.02561769
0.88218844 0.06135305 0.03725346
0.89187038 0.10532339 0.04484122
0.36423010 0.50716561 0.07097951
0.36169383 0.50617296 0.07116957
0.35858324 0.50497729 0.07131577
0.35750228 0.50598872 0.07136913
0.35674044 0.50779945 0.07109957
0.34976745 0.51043975 0.07019311
0.34132886 0.51424223 0.06875065
0.32534763 0.51714498 0.06719958
0.30884132 0.51954484 0.06552117
0.29277131 0.52065426 0.06423609
0.27863535 0.52216482 0.06293432
0.30058718 0.52220100 0.06386162
0.32679537 0.52244717 0.06484057
0.40327111 0.52003336 0.06852318
0.47588485 0.51693040 0.07092462
0.54171467 0.50721365 0.07131124
0.60432816 0.49616739 0.07190302
0.65286916 0.48484391 0.07221647
0.69950777 0.47285464 0.07236359
0.73529679 0.45262668 0.07234704
0.76758593 0.42793187 0.07224225
0.79038668 0.39114231 0.07155890
0.81046689 0.35124284 0.07006322
0.82069790 0.29788750 0.06615020
0.82727110 0.23982047 0.05981194
0.81912082 0.14749250 0.04563913
0.80664700 0.03181540 0.02739176
0.78333622 -0.00378657 0.02136923
0.76194465 -0.00356749 0.02013285
0.80464876 -0.00401257 0.02264460
0.84849787 -0.00450088 0.02540037
0.88270849 0.10654385 0.04430297
0.91003382 0.21696158 0.06224391
0.40734130 0.53427351 0.06846762
0.40701535 0.53331721 0.06837716
0.40441966 0.53200787 0.06816126
0.40308049 0.53277725 0.06816850
0.40163994 0.53440851 0.06824266
0.39474139 0.53671658 0.06814290
0.38605598 0.54004061 0.06805093
0.37007579 0.54250938 0.06756256
0.35248840 0.54484195 0.06696223
0.33312869 0.54454476 0.06598155
0.31827143 0.54613721 0.06537177
0.32086340 0.54622036 0.06551714
0.34470153 0.54669911 0.06676452
0.38423577 0.54663163 0.06851473
0.45786905 0.54432219 0.07083347
0.52882046 0.54054314 0.07206047
0.59391093 0.53029644 0.07238486
0.65327382 0.51969671 0.07230201
0.70068604 0.50848043 0.07206738
0.74078697 0.49429819 0.07190368
0.77515006 0.47197890 0.07203279
0.80023801 0.44062877 0.07234766
0.82072955 0.40162790 0.07225445
0.83482313 0.35542324 0.07098988
0.84313560 0.30007339 0.06743176
0.84136969 0.23755346 0.06044928
0.83121055 0.14262260 0.04584001
0.80657756 0.03273650 0.02751176
0.78466707 -0.00380048 0.02144760
0.81175822 -0.00325225 0.02318299
0.85329980 0.04780018 0.03301318
0.89248073 0.18395172 0.05673386
0.92075539 0.29477531 0.07004500
0.44628298 0.56123936 0.07135101
0.44598827 0.56083500 0.07132739
0.44611052 0.55957395 0.07127544
0.44430843 0.56068718 0.07128401
0.44270644 0.56205910 0.07130813
0.43634254 0.56399447 0.07125098
0.42880651 0.56657648 0.07119466
0.41393712 0.56895816 0.07094784
0.39804897 0.57032108 0.07059447
0.37861556 0.57055885 0.07002194
0.35878488 0.57048047 0.06933712
0.35902753 0.57032585 0.06933491
0.36578849 0.57025838 0.06957129
0.40075687 0.57083744 0.07069778
0.44070539 0.57072908 0.07161377
0.51225233 0.56721312 0.07235554
0.58289158 0.56287241 0.07218651
0.64357573 0.55342406 0.07158855
0.70110172 0.54329044 0.07073632
0.74335259 0.52989858 0.07028751
0.78100818 0.51521170 0.07001776
0.80684072 0.48724928 0.07084800
0.82950127 0.45405352 0.07175105
0.84469885 0.40905955 0.07239418
0.85736698 0.36235017 0.07174889
0.85799569 0.30550277 0.06852985
0.85480690 0.24428041 0.06214553
0.83481747 0.16059849 0.04891329
0.81184804 0.05857700 0.03150785
0.83368522 0.09302753 0.03832106
0.86104512 0.14335611 0.04831419
0.89742261 0.25163668 0.06542386
0.92952752 0.36322743 0.07239483
0.48221132 0.59021771 0.07239374
0.48138973 0.58993900 0.07239240
0.48148429 0.58953619 0.07239158
0.47990030 0.59189123 0.07239445
0.47855335 0.59297693 0.07239488
0.47682792 0.59464705 0.07239529
0.46993476 0.59684914 0.07239431
0.45848718 0.59786355 0.07237801
0.44263119 0.59876770 0.07231653
0.42231119 0.59659666 0.07210241
0.40240562 0.59642392 0.07182436
0.38854894 0.59266341 0.07143465
0.39184296 0.59209806 0.07147934
0.40867475 0.59135157 0.07176388
0.44710875 0.59171337 0.07225091
0.49023843 0.59266537 0.07238597
0.56169033 0.58887213 0.07180253
0.63431501 0.57937998 0.07062687
0.69235265 0.57020652 0.06937460
0.74546278 0.56424934 0.06776154
0.78369635 0.55096036 0.06723100
0.81290239 0.53801638 0.06706014
0.83720791 0.50840408 0.06849638
0.85146946 0.47153243 0.07047556
0.86535025 0.42725676 0.07200185
0.87343556 0.39122659 0.07239418
0.87362599 0.33788756 0.07109703
0.87043113 0.31163383 0.06946216
0.85286611 0.23747528 0.06118317
0.86020112 0.23426664 0.06124933
0.88237542 0.26741722 0.06624348
0.90391874 0.31563723 0.07075616
0.93381917 0.41787177 0.07107590
0.51658159 0.62067693 0.07149158
0.51501346 0.62053734 0.07152767
0.51402622 0.62049580 0.07154827
0.51138133 0.62326378 0.07149398
0.50975746 0.62524003 0.07144891
0.51004565 0.62614584 0.07140666
0.50749642 0.62848258 0.07136411
0.49730650 0.62827456 0.07157580
0.48425856 0.62921119 0.07177385
0.46441934 0.62689364 0.07211144
0.44435522 0.62326604 0.07233454
0.42739895 0.61938620 0.07239512
0.41565743 0.61432248 0.07233627
0.43028715 0.61284322 0.07238122
0.45007986 0.61236775 0.07238873
0.49124426 0.61257374 0.07212570
0.53546411 0.61426377 0.07136298
0.60972673 0.60500842 0.06985784
0.68209320 0.59372199 0.06799381
0.73590511 0.58934414 0.06593592
0.78554589 0.58634084 0.06364004
0.81577539 0.57442194 0.06325693
0.84220189 0.56223643 0.06311491
0.85706037 0.52980882 0.06572420
0.86925364 0.49291062 0.06843183
0.87834972 0.46050417 0.07032418
0.88683546 0.42837495 0.07162991
0.88749671 0.41067177 0.07212703
0.88615650 0.38907072 0.07239208
0.89177275 0.38376132 0.07239524
0.89991516 0.38569140 0.07237791
0.91683519 0.41999799 0.07136326
0.93531907 0.46923059 0.06761924
0.55856997 0.65346664 0.06825015
0.55229616 0.65365297 0.06848681
0.55035603 0.65351415 0.06857382
0.54188883 0.65791267 0.06856725
0.54002261 0.65998960 0.06848022
0.54484928 0.66081262 0.06822165
0.54439169 0.66262615 0.06809450
0.53875369 0.66109073 0.06844484
0.52767742 0.66128248 0.06885945
0.50764561 0.65787637 0.06980211
0.48591495 0.65423894 0.07066594
0.46235365 0.64614034 0.07157352
0.44779187 0.64077795 0.07198013
0.44284764 0.63315099 0.07220597
0.45879638 0.63127786 0.07207707
0.48156893 0.63005441 0.07179078
0.52439117 0.63158649 0.07082445
0.57202441 0.63233387 0.06931666
0.64666963 0.62152213 0.06716371
0.71778208 0.60469317 0.06533387
0.76872331 0.60253686 0.06279201
0.81358248 0.61346471 0.05870815
0.84061629 0.60299248 0.05828410
0.85633534 0.59369987 0.05844992
0.86992121 0.56240618 0.06146869
0.87537885 0.53301585 0.06445102
0.88501078 0.50277370 0.06692701
0.89391941 0.49515352 0.06720133
0.89508623 0.48112741 0.06832381
0.90252906 0.47910702 0.06818277
0.90951693 0.47653854 0.06810293
0.91967946 0.47634149 0.06769160
0.93470120 0.51185179 0.06347714
0.60048097 0.68676841 0.06295731
0.59348691 0.68638319 0.06339705
0.58703345 0.68659514 0.06373398
0.57705146 0.69008851 0.06390633
0.56884164 0.69363952 0.06397426
0.57380366 0.69452113 0.06360453
0.57838994 0.69530255 0.06326097
0.57390165 0.69387978 0.06366911
0.56694901 0.69238746 0.06421135
0.54848886 0.68865401 0.06556006
0.52883434 0.68398899 0.06694591
0.50432479 0.67585814 0.06865812
0.48012102 0.66782510 0.07005768
0.47158837 0.65927255 0.07078416
0.46782538 0.65151262 0.07124402
0.48822084 0.64955842 0.07084733
0.51267785 0.64837360 0.07023020
0.55881381 0.64954740 0.06854756
0.60619819 0.65041107 0.06641140
0.67902011 0.63401794 0.06434746
0.74779183 0.61611015 0.06246051
0.79354692 0.62779415 0.05817725
0.83542371 0.64116317 0.05349203
0.85189414 0.63366538 0.05336732
0.86645949 0.62486982 0.05355977
0.87335622 0.59881210 0.05664231
0.87957078 0.57255554 0.05963169
0.88977110 0.56609386 0.05978977
0.89928776 0.56045234 0.05988863
0.90723932 0.55849892 0.05962711
0.91479653 0.55713469 0.05931485
0.92323327 0.55153906 0.05947825
0.93264747 0.55181950 0.05883561
0.63942134 0.71419823 0.05714364
0.63330930 0.71289265 0.05772463
0.62619853 0.71374303 0.05808563
0.61573631 0.71624082 0.05845155
0.60718066 0.71931165 0.05861697
0.60818112 0.71862602 0.05863950
0.61237532 0.71888596 0.05833129
0.60874075 0.71647716 0.05887776
0.60290921 0.71414560 0.05954819
0.58703411 0.71053922 0.06098587
0.56684941 0.70640588 0.06267405
0.54172266 0.70005494 0.06475504
0.51731777 0.69194287 0.06675693
0.49507606 0.68400753 0.06839252
0.48898715 0.67553723 0.06925325
0.49244937 0.66975409 0.06952982
0.51475668 0.66841042 0.06881881
0.54247838 0.66765362 0.06776068
0.58815420 0.66914546 0.06549110
0.63238311 0.66758311 0.06328505
0.70245212 0.65137261 0.06103118
0.75808591 0.63706100 0.05930190
0.80310047 0.65081543 0.05443876
0.83743334 0.66574270 0.04984725
0.85300326 0.65889353 0.04969087
0.86439878 0.64949703 0.05020963
